!!!!SEGMENT: pl-cz--ii-121--007_klakowski--missa-in-dis-benedictus.krn
!!!cenid: 18xx:884
!!!COM: Klakowski
!!!COM-rismID: pe30098487
!!!CDT: ~1800-~1899
!!!CNT:
!!!OPR: Missa in Dis
!!!OTL: Benedictus
!!!OMV: 007
!!!PDT:
!!!AGN: Sacred; Mass
!!!SMS-siglum: PL-CZ
!!!SMS-shelfmark: II-121
!!!SMS-shelfwork: 001-007 M
!!!SMS-variant:
!!!SMS-altvar:
!!!NIFC-rismSourceID: 300000590
!!!NIFC-islandoraID: pl-cz:32114
!!!URL-pdf-islandora: https://repozytorium.nifc.pl/islandora/object/pl-cz%3A32114/datastream/PDF/view
!!!URL-scan:
!!!ONB-nifc: UWAGA: części Mszy: Kyrie, Gloria, Credo, Et incarnatus, Et resurrexit, Sanctus, Benedictus,
!!!AIN: 1 alto 1 clars 5 empty 1 tenor 1 viola 2 violn 1 vox
!!!key: B-
**kern	**fba	**dynam	**kern	**dynam	**kern	**dynam	**kern	**dynam	**kern	**kern	**kern	**text	**kern	**text	**kern	**kern	**kern	**dynam	**kern	**dynam
*part12	*part12	*part12	*part11	*part11	*part10	*part10	*part9	*part9	*part8	*part7	*part6	*part6	*part5	*part5	*part4	*part3	*part2	*part2	*part1	*part1
*staff12	*	*	*staff11	*	*staff10	*	*staff9	*	*staff8	*staff7	*staff6	*staff6	*staff5	*staff5	*staff4	*staff3	*staff2	*	*staff1	*
*Iempty	*	*	*Iviola	*	*Ivioln	*	*Ivioln	*	*Iempty	*Itenor	*Ialto	*	*Ivox	*	*Iempty	*Iempty	*Iclars	*	*Iempty	*
*I"Organo,	*	*	*I"Alto Viola	*	*I"Violino Secondo	*	*I"Violino Primo.	*	*I"Baſso	*I"Tenore	*I"Alto	*	*I"Canto	*	*I"Corno Secundo in DiS.	*I"Corno Primo in D.S	*I"Clarinetto Secundo	*	*I"Clarinetto Primo in B,	*
*I'org (=bc)	*	*	*I'vla	*	*I'vl 2	*	*I'vl 1	*	*I'B	*I'T	*I'A	*	*I'S	*	*I'cor 2	*I'cor 1	*I'cl 2	*	*I'cl 2	*
*ICklav	*	*	*ICstr	*	*ICstr	*	*ICstr	*	*ICvox	*ICvox	*ICvox	*	*ICvox	*	*ICbras	*ICbras	*ICww	*	*ICww	*
*clefF4	*	*	*clefC3	*	*clefG2	*	*clefG2	*	*clefF4	*clefC4	*clefC3	*	*clefC1	*	*clefG2	*clefG2	*clefG2	*	*clefG2	*
*	*	*	*	*	*	*	*	*	*	*	*	*	*	*	*ITrd-2c-3	*ITrd-2c-3	*ITrd1c2	*	*ITrd1c2	*
*k[b-e-]	*	*	*k[b-e-]	*	*k[b-e-]	*	*k[b-e-]	*	*k[b-e-]	*k[b-e-]	*k[b-e-]	*	*k[b-e-]	*	*k[b-e-]	*k[b-e-]	*k[b-e-]	*	*k[b-e-]	*
*B-:	*	*	*B-:	*	*B-:	*	*B-:	*	*B-:	*B-:	*B-:	*	*B-:	*	*B-:	*B-:	*	*	*	*
*M3/4	*	*	*M3/4	*	*M3/4	*	*M3/4	*	*M3/4	*M3/4	*M3/4	*	*M3/4	*	*M3/4	*M3/4	*M3/4	*	*M3/4	*
*	*	*	*	*	*	*below	*	*below	*	*	*	*	*	*	*	*	*	*	*	*
=1	=1	=1	=1	=1	=1	=1	=1	=1	=1	=1	=1	=1	=1	=1	=1	=1	=1	=1	=1	=1
*2\right	*	*	*	*	*	*	*	*	*	*	*	*	*	*	*	*	*	*	*	*
*tremolo	*	*	*tremolo	*	*	*	*	*	*	*	*	*	*	*	*	*	*	*	*	*
!	!	!	!	!	!	!	!LO:TX:t=P:problem=4\right&colon; global	!	!	!	!	!	!	!	!	!	!	!	!	!
!	!	!	!LO:TX:t=P:problem=3 bemole zamiast 2	!	!	!	!LO:TX:t=P:problem=kolejność znaków e- b-	!	!	!	!	!	!	!	!	!	!	!	!	!
!LO:TX:a:t=Solo	!	!	!LO:TX:t=P:problem=kolejność znaków b- d- a-	!	!	!	!LO:TX:b:rj:t=Benedict(us)	!	!	!	!LO:TX:a:t=10	!	!	!	!	!	!	!	!LO:TX:a:t=4	!
!LO:TX:a:t=Adagio	!	!	!LO:TX:a:t=Poco Ada.	!	!LO:TX:a:t=Poco Ada.	!	!LO:TX:a:t=dol&colon;	!	!	!	!LO:TX:a:t=Solo	!	!LO:TX:a:t=Solo	!	!	!	!LO:TX:a:rj:t=Poco Adagio	!	!LO:TX:a:rj:t=poco Adagio	!
!LO:TX:b:t=Benedictus	!	!LO:DY:a	!LO:TX:b:t=Bedictus	!	!LO:TX:b:t=Bene	!	!LO:TX:a:rj:t=Poco adagio	!	!LO:TX:a:t=Benedictus Tacet	!LO:TX:a:t=Benedictus Tacet	!LO:TX:a:rj:t=adagio	!	!LO:TX:a:rj:t=adagio	!	!LO:TX:a:t=Benedictus\nTacet	!LO:TX:a:t=Benedictus Tacet	!LO:TX:b:t=Benedictus	!	!LO:TX:b:t=Benedictus	!
8B-\L	.	p	8B-/L	p	1.r	.	4b-\	.	2.ryy	2.ryy	0.r	.	0.r	.	2.ryy	2.ryy	0.r	.	0.r	.
8B-\	.	.	8B-/	.	.	.	.	.	.	.	.	.	.	.	.	.	.	.	.	.
8B-\	.	.	8B-/	.	.	.	(4.dd\	sf	.	.	.	.	.	.	.	.	.	.	.	.
8B-\	.	.	8B-/	.	.	.	.	.	.	.	.	.	.	.	.	.	.	.	.	.
8B-\	.	.	8B-/	.	.	.	.	.	.	.	.	.	.	.	.	.	.	.	.	.
!	!	!	!	!	!	!	!LO:TX:t=P:problem=8\right&colon; global	!	!	!	!	!	!	!	!	!	!	!	!	!
8B-\J	.	.	8B-/J	.	.	.	8cc\)	.	.	.	.	.	.	.	.	.	.	.	.	.
*Xtremolo	*	*	*	*	*	*	*	*	*	*	*	*	*	*	*	*	*	*	*	*
=2	=2	=2	=2	=2	=2	=2	=2	=2	=2	=2	=2	=2	=2	=2	=2	=2	=2	=2	=2	=2
!LO:TX:t=P:problem=4\right&colon; global	!	!	!	!	!	!	!	!	!	!	!	!	!	!	!	!	!	!	!	!
4B-\	.	.	8B-/L	.	.	.	(8cc\L	.	2.ryy	2.ryy	.	.	.	.	2.ryy	2.ryy	.	.	.	.
.	.	.	8B-/	.	.	.	8b-\J)	.	.	.	.	.	.	.	.	.	.	.	.	.
8r	.	.	8B-/	.	.	.	4b-\	.	.	.	.	.	.	.	.	.	.	.	.	.
8BB-|>/L	.	.	8B-/	.	.	.	.	.	.	.	.	.	.	.	.	.	.	.	.	.
8D|>/	.	.	8B-/	.	.	.	4r	.	.	.	.	.	.	.	.	.	.	.	.	.
8F|>/J	.	.	8B-/J	.	.	.	.	.	.	.	.	.	.	.	.	.	.	.	.	.
=3	=3	=3	=3	=3	=3	=3	=3	=3	=3	=3	=3	=3	=3	=3	=3	=3	=3	=3	=3	=3
*tremolo	*	*	*	*	*	*	*	*	*	*	*	*	*	*	*	*	*	*	*	*
!	!	!	!	!	!LO:TX:t=P:problem=4\right&colon; global	!	!	!	!	!	!	!	!	!	!	!	!	!	!	!
8B-\L	.	.	8B-/L	.	4b-\	.	4dd\	.	2.ryy	2.ryy	.	.	.	.	2.ryy	2.ryy	.	.	.	.
8B-\	.	.	8B-/	.	.	.	.	.	.	.	.	.	.	.	.	.	.	.	.	.
!	!	!	!	!	!	!	!	!LO:HP:a	!	!	!	!	!	!	!	!	!	!	!	!
8B-\	.	.	8B-/	.	4.dd\	.	4.ff\	<	.	.	.	.	.	.	.	.	.	.	.	.
8B-\	.	.	8B-/	.	.	.	.	.	.	.	.	.	.	.	.	.	.	.	.	.
8B-\	.	.	8B-/	.	.	.	.	.	.	.	.	.	.	.	.	.	.	.	.	.
!	!	!	!	!	!LO:TX:t=P:problem=8\right&colon; global	!	!	!	!	!	!	!	!	!	!	!	!	!	!	!
8B-\J	.	.	8B-/J	.	8cc\	.	8ee-\	.	.	.	.	.	.	.	.	.	.	.	.	.
*Xtremolo	*	*	*	*	*	*	*	*	*	*	*	*	*	*	*	*	*	*	*	*
=4	=4	=4	=4	=4	=4	=4	=4	=4	=4	=4	=4	=4	=4	=4	=4	=4	=4	=4	=4	=4
!	!	!	!	!	!LO:TX:t=P:problem=16\right&colon; global	!	!LO:TX:t=P:problem=16\right&colon; global	!	!	!	!	!	!	!	!	!	!	!	!	!
4B-\	.	.	8B-/L	.	16dd\LL	.	(16ff\LL	.	2.ryy	2.ryy	.	.	.	.	2.ryy	2.ryy	.	.	.	.
.	.	.	.	.	(16cc\	.	16ee-\	.	.	.	.	.	.	.	.	.	.	.	.	.
.	.	.	8B-/	.	16b-\)	.	16dd\	.	.	.	.	.	.	.	.	.	.	.	.	.
.	.	.	.	.	16cc\JJ	.	16ee-\JJ)	.	.	.	.	.	.	.	.	.	.	.	.	.
8r	.	.	8B-/	.	4b-\	.	4dd\	.	.	.	.	.	.	.	.	.	.	.	.	.
8BB-|/L	.	.	8B-/	.	.	.	.	.	.	.	.	.	.	.	.	.	.	.	.	.
8D|/	.	.	8B-/	.	4r	.	8r	.	.	.	.	.	.	.	.	.	.	.	.	.
8BB-|/J	.	.	8B-/J	.	.	.	8ff\	.	.	.	.	.	.	.	.	.	.	.	.	.
=5	=5	=5	=5	=5	=5	=5	=5	=5	=5	=5	=5	=5	=5	=5	=5	=5	=5	=5	=5	=5
*	*	*	*	*	*tremolo	*below	*	*	*	*	*	*	*	*	*	*	*	*	*	*
!LO:TX:t=P:problem=4\right&colon; global	!	!	!	!	!	!	!	!	!	!	!	!	!	!	!	!	!LO:TX:t=P:problem=4\right&colon; global	!	!LO:TX:t=P:problem=4\right&colon; global	!
8E-\L	.	.	8B-/L	f	8g/L	f	8gg\L	f	2.ryy	2.ryy	0.r	.	0.r	.	2.ryy	2.ryy	4ee-\	.	4gg\	f
8e-\J	5 3	.	8B-/	.	8g/	.	8ee-\J	.	.	.	.	.	.	.	.	.	.	.	.	.
*tremolo	*	*	*	*	*	*	*	*	*	*	*	*	*	*	*	*	*	*	*	*
8e-\L	.	.	8B-/	.	8g/	.	4.bb-\	.	.	.	.	.	.	.	.	.	4.gg\	.	4.bb-\	.
8e-\	.	.	8B-/	.	8g/	.	.	.	.	.	.	.	.	.	.	.	.	.	.	.
8e-\	.	.	8B-/	.	8g/	.	.	.	.	.	.	.	.	.	.	.	.	.	.	.
!	!	!	!	!	!	!	!	!	!	!	!	!	!	!	!	!	!LO:TX:t=P:problem=16\right&colon; global	!	!LO:TX:t=P:problem=16\right&colon; global	!
8e-\J	.	.	8B-/J	.	8g/J	.	(16aa\LL	.	.	.	.	.	.	.	.	.	(16ff\LL	.	16aa\LL	.
.	.	.	.	.	.	.	16gg\JJ)	.	.	.	.	.	.	.	.	.	16ee-\JJ)	.	16gg\JJ	.
=6	=6	=6	=6	=6	=6	=6	=6	=6	=6	=6	=6	=6	=6	=6	=6	=6	=6	=6	=6	=6
8d\L	6	.	8B-/L	.	8f/L	.	8.ff\L	.	2.ryy	2.ryy	.	.	.	.	2.ryy	2.ryy	4dd\	.	4ff\	.
8d\	.	.	8B-/	.	8f/	.	.	.	.	.	.	.	.	.	.	.	.	.	.	.
.	.	.	.	.	.	.	16dd\Jk	.	.	.	.	.	.	.	.	.	.	.	.	.
8d\	.	.	8B-/	.	8f/	.	4b-\	.	.	.	.	.	.	.	.	.	4b-\	.	4dd\	.
8d\	.	.	8B-/	.	8f/	.	.	.	.	.	.	.	.	.	.	.	.	.	.	.
8d\	.	.	8B-/	.	8f/	.	8r	.	.	.	.	.	.	.	.	.	4r	.	4r	.
8d\J	.	.	8B-/J	.	8f/J	.	8dd\	.	.	.	.	.	.	.	.	.	.	.	.	.
*	*	*	*	*	*Xtremolo	*	*	*	*	*	*	*	*	*	*	*	*	*	*	*
!	!	!	!LO:LB:g=original	!	!	!	!	!	!	!	!	!	!	!	!	!	!	!	!	!
=7	=7	=7	=7	=7	=7	=7	=7	=7	=7	=7	=7	=7	=7	=7	=7	=7	=7	=7	=7	=7
*	*	*	*2\right	*	*	*	*	*	*	*	*	*	*	*	*	*	*	*	*	*
8e-\L	6	.	8e-\L	.	8e-|/L	.	(16dd\LL	.	2.ryy	2.ryy	.	.	.	.	2.ryy	2.ryy	4a\	.	4cc\	.
.	.	.	.	.	.	.	16cc\	.	.	.	.	.	.	.	.	.	.	.	.	.
8e-\	.	.	8e-\	.	8e-|/	.	16bn\	.	.	.	.	.	.	.	.	.	.	.	.	.
.	.	.	.	.	.	.	16cc\JJ)	.	.	.	.	.	.	.	.	.	.	.	.	.
!	!	!	!	!	!	!	!	!	!	!	!	!	!	!	!	!	!LO:TX:t=P:problem=8\right&colon; global	!	!LO:TX:t=P:problem=8\right&colon; global	!
8e-\	.	.	8e-\	.	8c|/	.	8.gg\L	.	.	.	.	.	.	.	.	.	8.ee-\L	.	8.gg\L	.
8e-\J	.	.	8e-\J	.	8c|/	.	.	.	.	.	.	.	.	.	.	.	.	.	.	.
.	.	.	.	.	.	.	16ee-\K	.	.	.	.	.	.	.	.	.	16cc\Jk	.	16ee-\Jk	.
*Xtremolo	*	*	*	*	*	*	*	*	*	*	*	*	*	*	*	*	*	*	*	*
!	!	!	!LO:TX:t=P:problem=8\right&colon; global	!	!	!	!	!	!	!	!	!	!	!	!	!	!	!	!	!
8f\L	5 3	.	8f\L	.	8A|/	.	8.cc\	.	.	.	.	.	.	.	.	.	4a\	.	4cc\	.
8f\J	.	.	8f\J	.	8A|/J	.	.	.	.	.	.	.	.	.	.	.	.	.	.	.
.	.	.	.	.	.	.	16a\Jk	.	.	.	.	.	.	.	.	.	.	.	.	.
!	!	!	!	!	!	!	!	!	!	!	!	!	!	!	!	!	!LO:LB:g=original	!	!	!
=8	=8	=8	=8	=8	=8	=8	=8	=8	=8	=8	=8	=8	=8	=8	=8	=8	=8	=8	=8	=8
.	.	.	.	.	.	.	8qcc/	.	.	.	.	.	.	.	.	.	.	.	.	.
4B-\	.	.	4B-/	.	8b-|\L	.	8b-\L	.	2.ryy	2.ryy	.	.	.	.	2.ryy	2.ryy	4cc\	.	4dd\	.
.	.	.	.	.	(16a\L	.	(16a\L	.	.	.	.	.	.	.	.	.	.	.	.	.
.	.	.	.	.	16b-\JJ)	.	16b-\JJ)	.	.	.	.	.	.	.	.	.	.	.	.	.
4BB-/	.	.	4B-/	.	4B-|/	.	4B-/	.	.	.	.	.	.	.	.	.	4b-\	.	4bb-\	.
4r	.	.	4r	.	4r	.	4r	.	.	.	.	.	.	.	.	.	4r	.	4r	.
!	!	!	!	!	!LO:LB:g=original	!	!LO:LB:g=original	!	!	!	!	!	!	!	!	!	!	!	!	!
=9	=9	=9	=9	=9	=9	=9	=9	=9	=9	=9	=9	=9	=9	=9	=9	=9	=9	=9	=9	=9
*tremolo	*	*	*	*	*	*	*	*	*	*	*	*	*	*	*	*	*	*	*	*
!	!	!	!	!	!	!	!	!	!	!	!	!	!LO:TX:t=P:problem=4\right&colon; global	!	!	!	!LO:TX:a:t=3	!	!LO:TX:a:t=3	!
8B-\L	.	p	8B-/L	p	1.r	.	4b-\	p	2.ryy	2.ryy	1.r	.	(4b-\	Be-	2.ryy	2.ryy	1.r	.	1.r	.
8B-\	.	.	8B-/	.	.	.	.	.	.	.	.	.	.	.	.	.	.	.	.	.
8B-\	.	.	8B-/	.	.	.	(4.dd\	sf	.	.	.	.	4.dd\)	.	.	.	.	.	.	.
8B-\	.	.	8B-/	.	.	.	.	.	.	.	.	.	.	.	.	.	.	.	.	.
8B-\	.	.	8B-/	.	.	.	.	.	.	.	.	.	.	.	.	.	.	.	.	.
!	!	!	!	!	!	!	!	!	!	!	!	!	!LO:TX:t=P:problem=8\right&colon; global	!	!	!	!	!	!	!
8B-\J	.	.	8B-/J	.	.	.	8cc\)	.	.	.	.	.	8cc\	-ne-	.	.	.	.	.	.
=10	=10	=10	=10	=10	=10	=10	=10	=10	=10	=10	=10	=10	=10	=10	=10	=10	=10	=10	=10	=10
4B-\	.	.	8B-/L	.	.	.	(8cc\L	.	2.ryy	2.ryy	.	.	8cc\L	-di-	2.ryy	2.ryy	.	.	.	.
.	.	.	8B-/	.	.	.	8b-\J)	.	.	.	.	.	8b-\J	.	.	.	.	.	.	.
8r	.	.	8B-/	.	.	.	4b-\	.	.	.	.	.	4b-\	-ctus	.	.	.	.	.	.
8BB-|>/L	.	.	8B-/	.	.	.	.	.	.	.	.	.	.	.	.	.	.	.	.	.
8D|>/	.	.	8B-/	.	.	.	4r	.	.	.	.	.	4r	.	.	.	.	.	.	.
8F|>/J	.	.	8B-/J	.	.	.	.	.	.	.	.	.	.	.	.	.	.	.	.	.
=11	=11	=11	=11	=11	=11	=11	=11	=11	=11	=11	=11	=11	=11	=11	=11	=11	=11	=11	=11	=11
!	!	!	!	!	!	!	!	!	!	!	!LO:TX:t=P:problem=4\right&colon; global	!	!	!	!	!	!	!	!	!
*	*	*	*	*	*	*	*	*	*	*	*	*	*	*ij	*	*	*	*	*	*
8B-\L	.	.	8B-/L	.	4b-\	.	4dd\	.	2.ryy	2.ryy	4b-\	Be-	4dd\	Be-	2.ryy	2.ryy	2.r	.	2.r	.
8B-\	.	.	8B-/	.	.	.	.	.	.	.	.	.	.	.	.	.	.	.	.	.
!	!	!	!	!	!	!	!	!LO:HP:a	!	!	!	!	!	!	!	!	!	!	!	!
8B-\	.	.	8B-/	.	4.dd\	.	4.ff\	<	.	.	4.dd\	.	4.ff\	.	.	.	.	.	.	.
8B-\	.	.	8B-/	.	.	.	.	.	.	.	.	.	.	.	.	.	.	.	.	.
8B-\	.	.	8B-/	.	.	.	.	.	.	.	.	.	.	.	.	.	.	.	.	.
!	!	!	!	!	!	!	!	!	!	!	!LO:TX:t=P:problem=8\right&colon; global	!	!	!	!	!	!	!	!	!
8B-\J	.	.	8B-/J	.	8cc\	.	8ee-\	.	.	.	8cc\	-ne-	8ee-\	-ne-	.	.	.	.	.	.
*Xtremolo	*	*	*	*	*	*	*	*	*	*	*	*	*	*	*	*	*	*	*	*
!LO:LB:g=original	!	!	!	!	!	!	!	!	!	!	!	!	!	!	!	!	!	!	!LO:LB:g=original	!
=12	=12	=12	=12	=12	=12	=12	=12	=12	=12	=12	=12	=12	=12	=12	=12	=12	=12	=12	=12	=12
!	!	!	!	!	!	!	!	!	!	!	!LO:TX:t=P:problem=16\right&colon; global	!	!LO:TX:t=P:problem=16\right&colon; global	!	!	!	!	!	!	!
4B-\	.	.	8B-/L	.	16dd\LL	.	(16ff\LL	.	2.ryy	2.ryy	16dd\LL	-di-	16ff\LL	-di-	2.ryy	2.ryy	4r	.	4r	.
.	.	.	.	.	(16cc\	.	16ee-\	.	.	.	16cc\	.	16ee-\	.	.	.	.	.	.	.
.	.	.	8B-/	.	16b-\)	.	16dd\	.	.	.	16b-\	.	16dd\	.	.	.	.	.	.	.
.	.	.	.	.	16cc\JJ	.	16ee-\JJ)	.	.	.	16cc\JJ	.	16ee-\JJ	.	.	.	.	.	.	.
8r	.	.	8B-/	.	4b-\	.	4dd\	.	.	.	4b-\	-ctus	4dd\	-ctus	.	.	4r	.	4r	.
*	*	*	*	*	*	*	*	*	*	*	*	*	*	*Xij	*	*	*	*	*	*
8BB-|/L	.	.	8B-/	.	.	.	.	.	.	.	.	.	.	.	.	.	.	.	.	.
8D|/	.	.	8B-/	.	8r	.	8r	.	.	.	8r	.	8r	.	.	.	8r	.	8r	p
8BB-|/J	.	.	8B-/J	.	8b-\	.	8dd\	.	.	.	8b-\	qui	8dd\	qui	.	.	8b-\	p	8dd\	.
*	*	*	*Xtremolo	*	*	*	*	*	*	*	*	*	*	*	*	*	*	*	*	*
=13	=13	=13	=13	=13	=13	=13	=13	=13	=13	=13	=13	=13	=13	=13	=13	=13	=13	=13	=13	=13
4F\	6	.	2.f\	.	(8b-/L	.	(8dd\L	.	2.ryy	2.ryy	8b-\L	ve-	8dd\L	ve-	2.ryy	2.ryy	(8b-\L	.	8dd\L	.
.	5	.	.	.	8a/)	.	8cc\)	.	.	.	8a\J	.	8cc\J	.	.	.	8a\J)	.	8cc\J	.
4A\	6	.	.	.	8f|/	.	8cc|\	.	.	.	4a\	-nit	4cc\	-nit	.	.	4a\	.	4cc\	.
.	.	.	.	.	8f|/	.	8cc|\J	.	.	.	.	.	.	.	.	.	.	.	.	.
4B-\	3	.	.	.	8f|/	.	(16ee-'\LL	.	.	.	8r	.	8r	.	.	.	8r	.	8r	.
.	.	.	.	.	.	.	16dd\	.	.	.	.	.	.	.	.	.	.	.	.	.
.	.	.	.	.	8f|/J	.	16cc#X\	.	.	.	8b-\	qui	8dd\	qui	.	.	8b-\	.	8dd\	.
.	.	.	.	.	.	.	16dd\JJ)	.	.	.	.	.	.	.	.	.	.	.	.	.
!	!	!	!	!	!	!	!	!	!	!	!LO:LB:g=original	!	!	!	!	!	!	!	!	!
=14	=14	=14	=14	=14	=14	=14	=14	=14	=14	=14	=14	=14	=14	=14	=14	=14	=14	=14	=14	=14
4F\	6	.	2.f\	.	(8b-/L	.	(8dd\L	.	2.ryy	2.ryy	8b-\L	ve-	8dd\L	ve-	2.ryy	2.ryy	(8b-\L	.	8dd\L	.
.	5	.	.	.	8a/)	.	8ccn\)	.	.	.	8a\J	.	8cc\J	.	.	.	8a\J)	.	8cc\J	.
4A\	6	.	.	.	8f|/	.	8cc|\	.	.	.	4a\	-nit	4cc\	-nit	.	.	4a\	.	4cc\	.
.	.	.	.	.	8f|/	.	8cc|\J	.	.	.	.	.	.	.	.	.	.	.	.	.
4B-\	3	.	.	.	8f|/	.	(16ee-\LL	.	.	.	8r	.	8r	.	.	.	8r	.	8r	.
.	.	.	.	.	.	.	16dd\	.	.	.	.	.	.	.	.	.	.	.	.	.
.	.	.	.	.	8f|/J	.	16cc#X\	.	.	.	8b-\	in	8dd\	in	.	.	8b-\	.	8dd\	.
.	.	.	.	.	.	.	16dd\JJ)	.	.	.	.	.	.	.	.	.	.	.	.	.
!	!	!	!	!	!	!	!	!	!	!	!	!	!LO:LB:g=original	!	!	!	!	!	!	!
=15	=15	=15	=15	=15	=15	=15	=15	=15	=15	=15	=15	=15	=15	=15	=15	=15	=15	=15	=15	=15
!	!	!	!	!	!LO:N:vis=8.	!	!	!	!	!	!	!	!	!	!	!	!	!	!	!
4BB-/	5 3	.	4B-/	.	8d/L	.	(8.ff\L	.	2.ryy	2.ryy	(4d\	no-	8.ff\L	no-	2.ryy	2.ryy	4dd\	.	4ff\	.
.	.	.	.	.	8f/	.	.	.	.	.	.	.	.	.	.	.	.	.	.	.
.	.	.	.	.	.	.	16dd\K)	.	.	.	.	.	16dd\Jk	.	.	.	.	.	.	.
!	!	!	!LO:TX:t=P:problem=4\right&colon; global	!	!	!	!	!	!	!	!	!	!	!	!	!	!	!	!	!
4E-\	.	.	4e-\	.	8e-/	.	(8.gg\	.	.	.	4e-\)	.	8.gg\L	.	.	.	4ee-\	.	4gg\	.
.	.	.	.	.	8e-/	.	.	.	.	.	.	.	.	.	.	.	.	.	.	.
.	.	.	.	.	.	.	16ee-\Jk)	.	.	.	.	.	16ee-\Jk	.	.	.	.	.	.	.
8E-\L	6	.	8e-\L	.	8e-/	.	8ccn\L	.	.	.	8e-\	-mi-	8cc\	-mi-	.	.	4r	.	4r	.
8En\J	6 5	.	8en\J	.	8en/J	.	8b-\J	.	.	.	8en\	-ne	8b-\	-ne	.	.	.	.	.	.
!	!	!	!LO:LB:g=original	!	!	!	!	!	!	!	!	!	!	!	!	!	!	!	!	!
=16	=16	=16	=16	=16	=16	=16	=16	=16	=16	=16	=16	=16	=16	=16	=16	=16	=16	=16	=16	=16
!	!	!	!	!	!	!	!	!	!	!	!	!	!	!	!	!	!LO:TX:a:t=1.	!	!	!
4F\	4 2	.	4f\	.	8g/L	.	4b-T\	.	2.ryy	2.ryy	8.f\	Do-	8.b-\	Do-	2.ryy	2.ryy	2.r	.	2.r	.
.	.	.	.	.	8g/J	.	.	.	.	.	.	.	.	.	.	.	.	.	.	.
.	.	.	.	.	.	.	.	.	.	.	16f\	-mi-	16b-\	-mi-	.	.	.	.	.	.
.	.	.	.	.	.	.	.	.	.	.	.	.	8qqb-/	.	.	.	.	.	.	.
4FF/	3 1	.	4F/	.	8c/L	.	4a\	.	.	.	4f\	-ni	4a\	-ni	.	.	.	.	.	.
.	.	.	.	.	8c/	.	.	.	.	.	.	.	.	.	.	.	.	.	.	.
4r	.	.	4f\	.	8c/	.	8r	.	.	.	4r	.	4r	.	.	.	.	.	.	.
.	.	.	.	.	8c/J	f	8f/	.	.	.	.	.	.	.	.	.	.	.	.	.
!	!	!	!	!	!LO:LB:g=original	!	!LO:LB:g=original	!	!	!	!	!	!	!	!	!	!LO:LB:g=original	!	!	!
=17	=17	=17	=17	=17	=17	=17	=17	=17	=17	=17	=17	=17	=17	=17	=17	=17	=17	=17	=17	=17
*	*	*	*tremolo	*	*	*	*	*	*	*	*	*	*	*	*	*	*2\right	*	*2\right	*
!	!	!	!	!	!	!	!	!	!	!	!	!	!	!	!	!	!	!LO:DY:t=f	!	!
4F\	7 5	.	8f\L	f	8c/	.	(16ee-\LL	.	2.ryy	2.ryy	8.cc\	Be-	8.ee-\	Be-	2.ryy	2.ryy	2.cc\	f	2.ee-\	f
.	.	.	.	.	.	.	16cc\)	.	.	.	.	.	.	.	.	.	.	.	.	.
.	.	.	8f\	.	4c/	.	16a|\	.	.	.	.	.	.	.	.	.	.	.	.	.
.	.	.	.	.	.	.	16f|\JJ	.	.	.	16cc\	-ne-	16ee-\	-ne-	.	.	.	.	.	.
4A\	_ _	.	8f\	.	.	.	(16e-/LL	.	.	.	4cc\	-dic-	4ee-\	-dic-	.	.	.	.	.	.
.	.	.	.	.	.	.	16c/)	.	.	.	.	.	.	.	.	.	.	.	.	.
.	.	.	8f\	.	4c/	.	16A|/	.	.	.	.	.	.	.	.	.	.	.	.	.
.	.	.	.	.	.	.	16c|/JJ	.	.	.	.	.	.	.	.	.	.	.	.	.
4F\	x	.	8f\	.	.	.	(16f/LL	.	.	.	8.a\	-t(us)	8.cc\	-t(us)	.	.	.	.	.	.
.	.	.	.	.	.	.	16a/)	.	.	.	.	.	.	.	.	.	.	.	.	.
.	.	.	8f\J	.	8c/	.	16cc|/	.	.	.	.	.	.	.	.	.	.	.	.	.
.	.	.	.	.	.	.	16ee-|/JJ	.	.	.	16cc\	qui	16ee-\	qui	.	.	.	.	.	.
*	*	*	*Xtremolo	*	*	*	*	*	*	*	*	*	*	*	*	*	*	*	*	*
!	!	!	!	!	!	!	!	!	!	!	!LO:LB:g=original	!	!	!	!	!	!	!	!	!
=18	=18	=18	=18	=18	=18	=18	=18	=18	=18	=18	=18	=18	=18	=18	=18	=18	=18	=18	=18	=18
4B-\	5 3	.	4f\	.	8d/	.	(16dd\LL	.	2.ryy	2.ryy	4b-\	ve-	4dd\	ve-	2.ryy	2.ryy	4b-\	.	4dd\	.
.	.	.	.	.	.	.	16ff\)	.	.	.	.	.	.	.	.	.	.	.	.	.
.	.	.	.	.	4d/	.	16ff|\	.	.	.	.	.	.	.	.	.	.	.	.	.
.	.	.	.	.	.	.	16ff|\JJ	.	.	.	.	.	.	.	.	.	.	.	.	.
4d\	.	.	4r	.	.	.	16ff|\LL	.	.	.	4dd\	-nit	4ff\	-nit	.	.	4dd\	.	4ff\	.
.	.	.	.	.	.	.	16ff|\	.	.	.	.	.	.	.	.	.	.	.	.	.
.	.	.	.	.	4B-/	.	16ff|\	.	.	.	.	.	.	.	.	.	.	.	.	.
.	.	.	.	.	.	.	16ff|\JJ	.	.	.	.	.	.	.	.	.	.	.	.	.
4B-\	.	.	4r	.	.	.	(16bb-\LL	.	.	.	4r	.	4r	.	.	.	4r	.	4r	.
.	.	.	.	.	.	.	16aa\	.	.	.	.	.	.	.	.	.	.	.	.	.
.	.	.	.	.	8B-/	.	16gg\	.	.	.	.	.	.	.	.	.	.	.	.	.
.	.	.	.	.	.	.	16ff\JJ)	.	.	.	.	.	.	.	.	.	.	.	.	.
=19	=19	=19	=19	=19	=19	=19	=19	=19	=19	=19	=19	=19	=19	=19	=19	=19	=19	=19	=19	=19
*	*	*	*tremolo	*	*	*	*	*	*	*	*	*	*	*	*	*	*	*	*	*
4F\	7	.	8f\L	.	8B-/	.	(16ee-\LL	.	2.ryy	2.ryy	8.cc\	in	8.ee-\	in	2.ryy	2.ryy	2.cc\	.	2.ee-\	.
.	.	.	.	.	.	.	16cc\)	.	.	.	.	.	.	.	.	.	.	.	.	.
.	_	.	8f\	.	4c/	.	16a|\	.	.	.	.	.	.	.	.	.	.	.	.	.
.	.	.	.	.	.	.	16f|\JJ	.	.	.	16cc\	no-	16ee-\	no-	.	.	.	.	.	.
4A\	.	.	8f\	.	.	.	(16e-/LL	.	.	.	4cc\	-mi-	4ee-\	-mi-	.	.	.	.	.	.
.	.	.	.	.	.	.	16c/)	.	.	.	.	.	.	.	.	.	.	.	.	.
.	.	.	8f\	.	4c/	.	16A|/	.	.	.	.	.	.	.	.	.	.	.	.	.
.	.	.	.	.	.	.	16c|/JJ	.	.	.	.	.	.	.	.	.	.	.	.	.
4F\	.	.	8f\	.	.	.	(16f/LL	.	.	.	4a\	-ne	4cc\	-ne	.	.	.	.	.	.
.	.	.	.	.	.	.	16a/)	.	.	.	.	.	.	.	.	.	.	.	.	.
.	.	.	8f\J	.	8c/	.	16cc|/	.	.	.	.	.	.	.	.	.	.	.	.	.
.	.	.	.	.	.	.	16ee-|/JJ	.	.	.	.	.	.	.	.	.	.	.	.	.
*	*	*	*Xtremolo	*	*	*	*	*	*	*	*	*	*	*	*	*	*	*	*	*
=20	=20	=20	=20	=20	=20	=20	=20	=20	=20	=20	=20	=20	=20	=20	=20	=20	=20	=20	=20	=20
4B-\	5 3	.	4f\	.	8d/	.	(16dd\LL	.	2.ryy	2.ryy	8b-\	Do-	8dd\	Do-	2.ryy	2.ryy	4b-\	.	4dd\	.
.	.	.	.	.	.	.	16ff\)	.	.	.	.	.	.	.	.	.	.	.	.	.
.	.	.	.	.	4d/	.	16ff|\	.	.	.	8dd\	-mi-	8ff\	-mi-	.	.	.	.	.	.
.	.	.	.	.	.	.	16ff|\JJ	.	.	.	.	.	.	.	.	.	.	.	.	.
4d\	.	.	4r	.	.	.	16ff|\LL	.	.	.	4dd\	-ni,	4ff\	-ni	.	.	4dd\	.	4ff\	.
.	.	.	.	.	.	.	16ff|\	.	.	.	.	.	.	.	.	.	.	.	.	.
.	.	.	.	.	4B-/	.	16ff|\	.	.	.	.	.	.	.	.	.	.	.	.	.
.	.	.	.	.	.	.	16ff|\JJ	.	.	.	.	.	.	.	.	.	.	.	.	.
4B-\	.	.	4r	.	.	.	(16bb-\LL	.	.	.	4r	.	4r	.	.	.	4r	.	4r	.
.	.	.	.	.	.	.	16aa\	.	.	.	.	.	.	.	.	.	.	.	.	.
.	.	.	.	.	8B-/	.	16gg\	.	.	.	.	.	.	.	.	.	.	.	.	.
.	.	.	.	.	.	.	16ff\JJ)	.	.	.	.	.	.	.	.	.	.	.	.	.
!	!	!	!	!	!	!	!	!	!	!	!	!	!LO:LB:g=original	!	!	!	!	!	!LO:LB:g=original	!
=21	=21	=21	=21	=21	=21	=21	=21	=21	=21	=21	=21	=21	=21	=21	=21	=21	=21	=21	=21	=21
*tremolo	*	*	*tremolo	*	*	*	*	*	*	*	*	*	*	*	*	*	*	*	*	*
!	!	!	!	!LO:DY:t=f	!	!	!	!	!	!	!	!	!	!	!	!	!	!	!	!
8e-\L	6	.	8c\L	f	8c/L	.	(16.gg\LL	f	2.ryy	2.ryy	0.r	.	0.r	.	2.ryy	2.ryy	2ee-\	.	2gg\	.
!	!	!	!	!	!	!	!LO:TX:t=P:problem=32\right&colon; global	!	!	!	!	!	!	!	!	!	!	!	!	!
.	.	.	.	.	.	.	32ff#X\K)	.	.	.	.	.	.	.	.	.	.	.	.	.
8e-\	.	.	8c\	.	8c/J	.	(16.gg\	.	.	.	.	.	.	.	.	.	.	.	.	.
.	.	.	.	.	.	.	32ff#\JJk)	.	.	.	.	.	.	.	.	.	.	.	.	.
*	*	*	*	*	*tremolo	*	*	*	*	*	*	*	*	*	*	*	*	*	*	*
8e-\	.	.	8c\	.	8g/L	.	16gg|\LL	.	.	.	.	.	.	.	.	.	.	.	.	.
.	.	.	.	.	.	.	(16ee-\	.	.	.	.	.	.	.	.	.	.	.	.	.
8e-\	.	.	8c\	.	8g/	.	16dd\	.	.	.	.	.	.	.	.	.	.	.	.	.
.	.	.	.	.	.	.	16cc\JJ)	.	.	.	.	.	.	.	.	.	.	.	.	.
!	!	!	!	!	!	!	!LO:LB:g=original	!	!	!	!	!	!	!	!	!	!	!	!	!
8e-\	.	.	8c\	.	8g/	.	(16bn\LL	.	.	.	.	.	.	.	.	.	4cc\	.	4ee-\	.
.	.	.	.	.	.	.	16cc\	.	.	.	.	.	.	.	.	.	.	.	.	.
8e-\J	.	.	8c\J	.	8g/J	.	16dd\	.	.	.	.	.	.	.	.	.	.	.	.	.
.	.	.	.	.	.	.	16cc\JJ)	.	.	.	.	.	.	.	.	.	.	.	.	.
=22	=22	=22	=22	=22	=22	=22	=22	=22	=22	=22	=22	=22	=22	=22	=22	=22	=22	=22	=22	=22
8d\L	6	.	8B-/L	.	8B-/L	.	(16.ffn\LL	.	2.ryy	2.ryy	.	.	.	.	2.ryy	2.ryy	2dd\	.	2ff\	.
.	.	.	.	.	.	.	32ee-\K)	.	.	.	.	.	.	.	.	.	.	.	.	.
8d\	.	.	8B-/	.	8B-/J	.	(16.ff\	.	.	.	.	.	.	.	.	.	.	.	.	.
.	.	.	.	.	.	.	32ee-\JJk)	.	.	.	.	.	.	.	.	.	.	.	.	.
8d\	.	.	8B-/	.	8f/L	.	16ff\LL	.	.	.	.	.	.	.	.	.	.	.	.	.
.	.	.	.	.	.	.	16dd\	.	.	.	.	.	.	.	.	.	.	.	.	.
8d\	.	.	8B-/	.	8f/	.	16cc\	.	.	.	.	.	.	.	.	.	.	.	.	.
.	.	.	.	.	.	.	16b-\JJ	.	.	.	.	.	.	.	.	.	.	.	.	.
8d\	.	.	8B-/	.	8f/	.	16a/LL	.	.	.	.	.	.	.	.	.	4b-\	.	4dd\	.
.	.	.	.	.	.	.	16b-/	.	.	.	.	.	.	.	.	.	.	.	.	.
8d\J	.	.	8B-/J	.	8f/J	.	16cc/	.	.	.	.	.	.	.	.	.	.	.	.	.
.	.	.	.	.	.	.	16b-/JJ	.	.	.	.	.	.	.	.	.	.	.	.	.
*Xtremolo	*	*	*Xtremolo	*	*Xtremolo	*	*	*	*	*	*	*	*	*	*	*	*	*	*	*
!LO:LB:g=original	!	!	!	!	!	!	!	!	!	!	!	!	!	!	!	!	!	!	!	!
=23	=23	=23	=23	=23	=23	=23	=23	=23	=23	=23	=23	=23	=23	=23	=23	=23	=23	=23	=23	=23
8e-\L	.	.	8e-\L	.	8g|/L	.	(16g\LL	.	2.ryy	2.ryy	.	.	.	.	2.ryy	2.ryy	4cc\	.	4ee-\	.
.	.	.	.	.	.	.	16ee-\)	.	.	.	.	.	.	.	.	.	.	.	.	.
8e-\	.	.	8e-\	.	8g|/	.	(16gg\	.	.	.	.	.	.	.	.	.	.	.	.	.
.	.	.	.	.	.	.	16ee-\JJ)	.	.	.	.	.	.	.	.	.	.	.	.	.
8f\	6 4	.	8f\	.	8f|/	.	8.dd\L	.	.	.	.	.	.	.	.	.	4b-\	.	4dd\	.
8f\	.	.	8f\	.	8d|/	.	.	.	.	.	.	.	.	.	.	.	.	.	.	.
.	.	.	.	.	.	.	16b-\Jk	.	.	.	.	.	.	.	.	.	.	.	.	.
8F\	5 4	.	8f\	.	8c|/	.	(16cc\LL	.	.	.	.	.	.	.	.	.	4a\	.	4cc\	.
.	.	.	.	.	.	.	16ee-\)	.	.	.	.	.	.	.	.	.	.	.	.	.
8F\J	.	.	8f\J	.	8e-|/J	.	(16a\	.	.	.	.	.	.	.	.	.	.	.	.	.
.	.	.	.	.	.	.	16cc\JJ)	.	.	.	.	.	.	.	.	.	.	.	.	.
=24	=24	=24	=24	=24	=24	=24	=24	=24	=24	=24	=24	=24	=24	=24	=24	=24	=24	=24	=24	=24
4B-\	.	.	4B-/	.	4d/	.	4b-\	.	2.ryy	2.ryy	.	.	.	.	2.ryy	2.ryy	4b-\	.	4dd\	.
4BB-/	.	.	4B-/	.	4d/	.	4B-/	.	.	.	.	.	.	.	.	.	4b-\	.	4dd\	.
4r	.	.	4r	.	4r	.	8r	.	.	.	.	.	.	.	.	.	4r	.	4r	.
.	.	.	.	.	.	.	8f/	p	.	.	.	.	.	.	.	.	.	.	.	.
!	!	!	!LO:LB:g=original	!	!LO:LB:g=original	!	!	!	!	!	!	!	!	!	!	!	!	!	!	!
=25	=25	=25	=25	=25	=25	=25	=25	=25	=25	=25	=25	=25	=25	=25	=25	=25	=25	=25	=25	=25
*	*	*	*	*	*	*	*2\right	*	*	*	*2\right	*	*2\right	*	*	*	*	*	*	*
!	!	!	!	!	!LO:TX:t=P:problem=| c nieczytelny znak	!	!	!	!	!	!	!	!	!	!	!	!LO:TX:a:t=10	!	!LO:TX:a:t=10	!
4BB-/	.	.	8D/L	p	(8B-/L	p	2b-\	.	2.ryy	2.ryy	[2f\	Be-	(2b-\	Be-	2.ryy	2.ryy	0.r	.	0.r	.
.	.	.	8F/	.	8d/)	.	.	.	.	.	.	.	.	.	.	.	.	.	.	.
4D/	6	.	8D/	.	(8B-/	.	.	.	.	.	.	.	.	.	.	.	.	.	.	.
.	.	.	8F/	.	8d/)	.	.	.	.	.	.	.	.	.	.	.	.	.	.	.
4BB-/	.	.	8D/	.	(8B-/	.	(16dd\LL	.	.	.	8f\]	.	16dd\LL)	.	.	.	.	.	.	.
.	.	.	.	.	.	.	16b-\	.	.	.	.	.	16b-\JJ	.	.	.	.	.	.	.
.	.	.	8F/J	.	8d/J)	.	16ff\	.	.	.	8f\	-ne-	16ff\LL	-ne-	.	.	.	.	.	.
.	.	.	.	.	.	.	16dd\JJ)	.	.	.	.	.	16dd\JJ	.	.	.	.	.	.	.
=26	=26	=26	=26	=26	=26	=26	=26	=26	=26	=26	=26	=26	=26	=26	=26	=26	=26	=26	=26	=26
4F\	.	.	8An/L	.	8c/L	.	(16dd\LL	.	2.ryy	2.ryy	4f\	-dic-	16dd\LL	-di-	2.ryy	2.ryy	.	.	.	.
.	.	.	.	.	.	.	16cc\	.	.	.	.	.	16cc\	.	.	.	.	.	.	.
.	.	.	8c/	.	8f/	.	16bn\	.	.	.	.	.	16bn\	.	.	.	.	.	.	.
.	.	.	.	.	.	.	16cc\JJ)	.	.	.	.	.	16cc\JJ	.	.	.	.	.	.	.
4A\	6	.	8F/	.	8A/	.	4.cc\	.	.	.	4f\	-tus	4.cc\	-ctus	.	.	.	.	.	.
.	.	.	8A/J	.	8c/	.	.	.	.	.	.	.	.	.	.	.	.	.	.	.
4F\	.	.	4c/	.	8f/	.	.	.	.	.	4r	.	.	.	.	.	.	.	.	.
.	.	.	.	.	8f/J	.	8ff\	.	.	.	.	.	8ff\	qui	.	.	.	.	.	.
!	!	!	!	!	!	!	!	!	!	!	!LO:LB:g=original	!	!	!	!	!	!	!	!	!
=27	=27	=27	=27	=27	=27	=27	=27	=27	=27	=27	=27	=27	=27	=27	=27	=27	=27	=27	=27	=27
!	!	!	!	!	!	!	!LO:TX:t=P:problem=niepełny rytmicznie takt	!	!	!	!	!	!LO:TX:t=P:problem=niepełny rytmicznie takt	!	!	!	!	!	!	!
4G\	6\	.	4c\	.	8c'/L	.	16ff\LL	.	2.ryy	2.ryy	1.r	.	16ff\LL	ve-	2.ryy	2.ryy	.	.	.	.
.	.	.	.	.	.	.	16een\J	.	.	.	.	.	16een\J	.	.	.	.	.	.	.
.	.	.	.	.	8c'/	.	(8.gg\J	.	.	.	.	.	8.gg\J	.	.	.	.	.	.	.
4C/	n	.	4en\	.	8B-'/	.	.	.	.	.	.	.	.	.	.	.	.	.	.	.
.	.	.	.	.	.	.	8ee\L)	.	.	.	.	.	8ee\L	.	.	.	.	.	.	.
.	.	.	.	.	8B-'/	.	.	.	.	.	.	.	.	.	.	.	.	.	.	.
.	.	.	.	.	.	.	8cc\	.	.	.	.	.	8cc\	.	.	.	.	.	.	.
4En\	5 3	.	4e\	.	8G'/	.	.	.	.	.	.	.	.	.	.	.	.	.	.	.
.	.	.	.	.	.	.	8a\J	.	.	.	.	.	8b-\J	.	.	.	.	.	.	.
.	.	.	.	.	8G'/J	.	.	.	.	.	.	.	.	.	.	.	.	.	.	.
.	.	.	.	.	.	.	16ryy	.	.	.	.	.	16ryy	.	.	.	.	.	.	.
!	!	!	!	!	!	!	!LO:LB:g=original	!	!	!	!	!	!	!	!	!	!	!	!	!
=28	=28	=28	=28	=28	=28	=28	=28	=28	=28	=28	=28	=28	=28	=28	=28	=28	=28	=28	=28	=28
4F\	4 2	.	4f\	.	16en/LL	.	(16cc\LL	.	2.ryy	2.ryy	.	.	4b-\	.	2.ryy	2.ryy	.	.	.	.
.	.	.	.	.	16g/	.	16b-\	.	.	.	.	.	.	.	.	.	.	.	.	.
.	.	.	.	.	16e/	.	16a\	.	.	.	.	.	.	.	.	.	.	.	.	.
.	.	.	.	.	16g/JJ	.	16b-\JJ)	.	.	.	.	.	.	.	.	.	.	.	.	.
4FF/	5 3	.	4f\	.	4f/	.	4a\	.	.	.	.	.	4a\	-nit	.	.	.	.	.	.
4F\	.	.	4r	.	8r	.	8r	.	.	.	.	.	8r	.	.	.	.	.	.	.
.	.	.	.	.	8f/	.	8a\	.	.	.	.	.	8a\	qui	.	.	.	.	.	.
=29	=29	=29	=29	=29	=29	=29	=29	=29	=29	=29	=29	=29	=29	=29	=29	=29	=29	=29	=29	=29
8C\	7	.	2.C/	.	8en/	.	8g/	.	2.ryy	2.ryy	4r	.	16g|\LL	ve-	2.ryy	2.ryy	0.r	.	0.r	.
.	.	.	.	.	.	.	.	.	.	.	.	.	(16b-\	.	.	.	.	.	.	.
8r	.	.	.	.	8r	.	8r	.	.	.	.	.	16a\	.	.	.	.	.	.	.
.	.	.	.	.	.	.	.	.	.	.	.	.	16b-\JJ)	.	.	.	.	.	.	.
8C\	.	.	.	.	8e/	.	8b-/ 8g/	.	.	.	4r	.	16gg|\LL	.	.	.	.	.	.	.
.	.	.	.	.	.	.	.	.	.	.	.	.	(16b-\	.	.	.	.	.	.	.
8r	.	.	.	.	8r	.	8r	.	.	.	.	.	16a\	.	.	.	.	.	.	.
.	.	.	.	.	.	.	.	.	.	.	.	.	16b-\JJ)	.	.	.	.	.	.	.
8C\	.	.	.	.	8e/	.	8b-/ 8g/	.	.	.	8r	.	16gg|\LL	.	.	.	.	.	.	.
.	.	.	.	.	.	.	.	.	.	.	.	.	(16b-\	.	.	.	.	.	.	.
8r	.	.	.	.	8r	.	8r	.	.	.	8b-\	qui	16a\	.	.	.	.	.	.	.
.	.	.	.	.	.	.	.	.	.	.	.	.	16b-\JJ)	.	.	.	.	.	.	.
=30	=30	=30	=30	=30	=30	=30	=30	=30	=30	=30	=30	=30	=30	=30	=30	=30	=30	=30	=30	=30
*	*	*	*	*	*tremolo	*	*	*	*	*	*	*	*	*	*	*	*	*	*	*
4F\	3	.	4F/	.	8f/L	.	(16a\LL	.	2.ryy	2.ryy	16a\LL	ve-	4a\	-nit	2.ryy	2.ryy	.	.	.	.
.	.	.	.	.	.	.	16cc\)	.	.	.	16cc\	.	.	.	.	.	.	.	.	.
.	.	.	.	.	8f/	.	(16dd\	.	.	.	16dd\	.	.	.	.	.	.	.	.	.
.	.	.	.	.	.	.	16cc\JJ)	.	.	.	16cc\JJ	.	.	.	.	.	.	.	.	.
4F\	.	.	4r	.	8f/	.	(16dd\LL	.	.	.	16dd\LL	.	4r	.	.	.	.	.	.	.
.	.	.	.	.	.	.	16cc\)	.	.	.	16cc\	.	.	.	.	.	.	.	.	.
.	.	.	.	.	8f/	.	(16bn\	.	.	.	16bn\	.	.	.	.	.	.	.	.	.
.	.	.	.	.	.	.	16cc\JJ)	.	.	.	16cc\JJ	.	.	.	.	.	.	.	.	.
!	!	!	!	!	!	!	!	!	!	!	!	!	!LO:LB:g=original	!	!	!	!	!	!	!
4F\	.	.	4r	.	8f/	.	(16b-X\LL	.	.	.	16b-X\LL	.	8r	.	.	.	.	.	.	.
.	.	.	.	.	.	.	16a\)	.	.	.	16a\JJ	.	.	.	.	.	.	.	.	.
.	.	.	.	.	8f/J	.	(16g\	.	.	.	16g\LL	.	8a\	qui	.	.	.	.	.	.
.	.	.	.	.	.	.	16f\JJ)	.	.	.	16f\JJ	-nit	.	.	.	.	.	.	.	.
*	*	*	*	*	*Xtremolo	*	*	*	*	*	*	*	*	*	*	*	*	*	*	*
=31	=31	=31	=31	=31	=31	=31	=31	=31	=31	=31	=31	=31	=31	=31	=31	=31	=31	=31	=31	=31
8C\	7	.	2.C/	.	8en/	.	8g/L	p	2.ryy	2.ryy	4r	.	16g\LL	ve-	2.ryy	2.ryy	.	.	.	.
.	.	.	.	.	.	.	.	.	.	.	.	.	16b-\JJ	.	.	.	.	.	.	.
!	!	!	!	!	!	!	!	!	!	!	!	!	!LO:TX:t=P:problem=32\right&colon; global	!	!	!	!	!	!	!
8r	.	.	.	.	8r	.	8b-/J	.	.	.	.	.	32cc\LLL	.	.	.	.	.	.	.
.	.	.	.	.	.	.	.	.	.	.	.	.	32b-\	.	.	.	.	.	.	.
.	.	.	.	.	.	.	.	.	.	.	.	.	32a\	.	.	.	.	.	.	.
.	.	.	.	.	.	.	.	.	.	.	.	.	32b-\JJJ	.	.	.	.	.	.	.
8C\	.	.	.	.	8e/	.	8b-/ 8g/	.	.	.	4r	.	16gg\LL	.	.	.	.	.	.	.
.	.	.	.	.	.	.	.	.	.	.	.	.	16b-\JJ	.	.	.	.	.	.	.
8r	.	.	.	.	8r	.	8r	.	.	.	.	.	32cc\LLL	.	.	.	.	.	.	.
.	.	.	.	.	.	.	.	.	.	.	.	.	32b-\	.	.	.	.	.	.	.
.	.	.	.	.	.	.	.	.	.	.	.	.	32a\	.	.	.	.	.	.	.
.	.	.	.	.	.	.	.	.	.	.	.	.	32b-\JJJ	.	.	.	.	.	.	.
8C\	.	.	.	.	8e/	.	8b-/ 8g/	.	.	.	8r	.	16gg\LL	.	.	.	.	.	.	.
.	.	.	.	.	.	.	.	.	.	.	.	.	16b-\JJ	.	.	.	.	.	.	.
8r	.	.	.	.	8r	.	8r	.	.	.	8b-\	qui	32cc\LLL	.	.	.	.	.	.	.
.	.	.	.	.	.	.	.	.	.	.	.	.	32b-\	.	.	.	.	.	.	.
.	.	.	.	.	.	.	.	.	.	.	.	.	32a\	.	.	.	.	.	.	.
.	.	.	.	.	.	.	.	.	.	.	.	.	32b-\JJJ	.	.	.	.	.	.	.
!LO:LB:g=original	!	!	!	!	!LO:LB:g=original	!	!	!	!	!	!LO:LB:g=original	!	!	!	!	!	!	!	!	!
=32	=32	=32	=32	=32	=32	=32	=32	=32	=32	=32	=32	=32	=32	=32	=32	=32	=32	=32	=32	=32
*	*	*	*	*	*tremolo	*	*	*	*	*	*	*	*	*	*	*	*	*	*	*
4F\	.	.	4F/	.	8f/L	.	(16a\LL	.	2.ryy	2.ryy	16a\LL	ve-	4a\	-nit	2.ryy	2.ryy	.	.	.	.
.	.	.	.	.	.	.	16cc\)	.	.	.	16cc\	.	.	.	.	.	.	.	.	.
.	.	.	.	.	8f/	.	(16dd\	.	.	.	16dd\	.	.	.	.	.	.	.	.	.
.	.	.	.	.	.	.	16cc\JJ)	.	.	.	16cc\JJ	.	.	.	.	.	.	.	.	.
4F\	.	.	4r	.	8f/	.	(16dd\LL	.	.	.	16dd\LL	.	4r	.	.	.	.	.	.	.
.	.	.	.	.	.	.	16cc\)	.	.	.	16cc\	.	.	.	.	.	.	.	.	.
.	.	.	.	.	8f/	.	(16bn\	.	.	.	16bn\	.	.	.	.	.	.	.	.	.
.	.	.	.	.	.	.	16cc\JJ)	.	.	.	16cc\JJ	.	.	.	.	.	.	.	.	.
4F\	.	.	4r	.	8f/	.	(16b-X\LL	.	.	.	16b-X\LL	.	4r	.	.	.	.	.	.	.
.	.	.	.	.	.	.	16a\)	.	.	.	16a\JJ	.	.	.	.	.	.	.	.	.
.	.	.	.	.	8f/J	.	(16g\	.	.	.	16g\LL	.	.	.	.	.	.	.	.	.
.	.	.	.	.	.	.	16f\JJ)	.	.	.	16f\JJ	-nit	.	.	.	.	.	.	.	.
*	*	*	*	*	*Xtremolo	*	*	*	*	*	*	*	*	*	*	*	*	*	*	*
=33	=33	=33	=33	=33	=33	=33	=33	=33	=33	=33	=33	=33	=33	=33	=33	=33	=33	=33	=33	=33
!	!	!	!LO:TX:a:t=2	!	!	!	!	!	!	!	!	!	!	!	!	!	!	!	!	!
4B-\	.	.	1.r	.	8f/L	.	8dd\L	.	2.ryy	2.ryy	4b-\	qui	4dd\	qui	2.ryy	2.ryy	1.r	.	1.r	.
.	.	.	.	.	.	.	32qqee-/LLL	.	.	.	.	.	.	.	.	.	.	.	.	.
.	.	.	.	.	.	.	32qqdd/	.	.	.	.	.	.	.	.	.	.	.	.	.
.	.	.	.	.	.	.	32qqcc#X/JJJ	.	.	.	.	.	.	.	.	.	.	.	.	.
.	.	.	.	.	8f/J	.	8dd\J	.	.	.	.	.	.	.	.	.	.	.	.	.
*	*	*	*	*	*2\right	*	*	*	*	*	*	*	*	*	*	*	*	*	*	*
*	*	*	*	*	*tremolo	*	*	*	*	*	*	*	*	*	*	*	*	*	*	*
4d\	6	.	.	.	8b-\L	.	(4.ff\	.	.	.	4.dd\	ve-	4.ff\	ve-	.	.	.	.	.	.
.	.	.	.	.	8b-\	.	.	.	.	.	.	.	.	.	.	.	.	.	.	.
4B-\	.	.	.	.	8b-\	.	.	.	.	.	.	.	.	.	.	.	.	.	.	.
.	.	.	.	.	8b-\J	.	16een\LL	.	.	.	16cc\LL	.	16een\LL	.	.	.	.	.	.	.
.	.	.	.	.	.	.	16dd\JJ)	.	.	.	16b-\JJ	.	16dd\JJ	.	.	.	.	.	.	.
!	!	!	!	!	!	!	!LO:LB:g=original	!	!	!	!	!	!	!	!	!	!	!	!	!
=34	=34	=34	=34	=34	=34	=34	=34	=34	=34	=34	=34	=34	=34	=34	=34	=34	=34	=34	=34	=34
4F\	5 3	.	.	.	8a/L	.	(8.cc\L	.	2.ryy	2.ryy	4a\	.	8.cc\L	.	2.ryy	2.ryy	.	.	.	.
.	.	.	.	.	8a/	.	.	.	.	.	.	.	.	.	.	.	.	.	.	.
.	.	.	.	.	.	.	16a\Jk)	.	.	.	.	.	16a\Jk	.	.	.	.	.	.	.
4F\	.	.	.	.	8a/	.	4f/	.	.	.	4f\	-nit	4f\	-nit	.	.	.	.	.	.
.	.	.	.	.	8a/J	.	.	.	.	.	.	.	.	.	.	.	.	.	.	.
*	*	*	*	*	*Xtremolo	*	*	*	*	*	*	*	*	*	*	*	*	*	*	*
4F\	.	.	.	.	8c/L	.	8r	.	.	.	8r	.	8r	.	.	.	.	.	.	.
.	.	.	.	.	8c/J	.	8a/	.	.	.	8f\	in	8a\	in	.	.	.	.	.	.
!	!	!	!LO:LB:g=original	!	!	!	!	!	!	!	!	!	!	!	!	!	!LO:LB:g=original	!	!	!
=35	=35	=35	=35	=35	=35	=35	=35	=35	=35	=35	=35	=35	=35	=35	=35	=35	=35	=35	=35	=35
4B-\	6	.	4c/	.	8B-|/L	.	8g|\L	.	2.ryy	2.ryy	8en\L	no-	8g\L	no-	2.ryy	2.ryy	4r	.	4r	.
.	.	.	.	.	(8b-/	.	(8dd\	.	.	.	8b-\J	.	8dd\J	.	.	.	.	.	.	.
4c\	8 6	.	4c/	.	8a/	.	8cc\	.	.	.	8a\	-mi-	8cc\	-mi-	.	.	8r	.	8r	.
.	7 5	.	.	.	8g/	.	8b-\	.	.	.	8g\	-ne	8b-\	-ne	.	.	8gg\L	.	8bb-\L	.
4C/	6 4	.	4c/	.	8f/	.	8a\	.	.	.	8f\L	Do-	8a\	Do-	.	.	8ff\	.	8aa\	.
.	5 n	.	.	.	8B-/J)	.	8g\J)	.	.	.	8B-\J	-mi-	8g\	-mi-	.	.	8ee-\J	.	8gg\J	.
!	!	!	!	!	!	!	!	!	!	!	!LO:LB:g=original	!	!LO:LB:g=original	!	!	!	!	!	!	!
=36	=36	=36	=36	=36	=36	=36	=36	=36	=36	=36	=36	=36	=36	=36	=36	=36	=36	=36	=36	=36
2F\	9 4	.	4f\	.	4B-/	.	4g/	.	2.ryy	2.ryy	(4B-/	-ni	(4g/	-ni	2.ryy	2.ryy	4eeX\	.	4gg\	.
.	8 3	.	4F/	.	4A/	.	4f/	.	.	.	4A/)	.	4f/)	.	.	.	4ff\	.	4ff\	.
4FF/	.	.	4F/	.	4r	.	8r	.	.	.	4r	.	4r	.	.	.	4r	.	4r	.
.	.	.	.	.	.	.	8c/	.	.	.	.	.	.	.	.	.	.	.	.	.
=37	=37	=37	=37	=37	=37	=37	=37	=37	=37	=37	=37	=37	=37	=37	=37	=37	=37	=37	=37	=37
*	*	*	*	*	*tremolo	*	*	*	*	*	*	*	*	*	*	*	*	*	*	*
8F\L	5 3	.	2.F/	.	8c/L	.	8f/L	.	2.ryy	2.ryy	0.r	.	0.r	.	2.ryy	2.ryy	4cc\	.	4ff\	.
8F\	_ _	.	.	.	8c/	.	8f/J	.	.	.	.	.	.	.	.	.	.	.	.	.
8A\	.	.	.	.	8c/	.	16f/LL	.	.	.	.	.	.	.	.	.	4cc\	p	4ff\	.
.	.	.	.	.	.	.	16en/	.	.	.	.	.	.	.	.	.	.	.	.	.
8A\	x	.	.	.	8c/	.	16f/	.	.	.	.	.	.	.	.	.	.	.	.	.
.	.	.	.	.	.	.	16g/JJ	.	.	.	.	.	.	.	.	.	.	.	.	.
8A\	-5 3	.	.	.	8c/	.	8f/L	.	.	.	.	.	.	.	.	.	4cc\	.	8ff\L	.
8A\J	_ _	.	.	.	8c/J	.	8e-X/J	.	.	.	.	.	.	.	.	.	.	.	8ee-\J	.
=38	=38	=38	=38	=38	=38	=38	=38	=38	=38	=38	=38	=38	=38	=38	=38	=38	=38	=38	=38	=38
*tremolo	*	*	*	*	*	*	*	*	*	*	*	*	*	*	*	*	*	*	*	*
8B-\L	x	.	2.F/	.	8f/L	.	(8c#X/L	.	2.ryy	2.ryy	.	.	.	.	2.ryy	2.ryy	(8a\L	.	8cc#X\L	.
8B-\	.	.	.	.	8f/	.	8d/J)	.	.	.	.	.	.	.	.	.	8b-\J)	.	8dd\J	.
8B-\	.	.	.	.	8f/	.	4.d/	.	.	.	.	.	.	.	.	.	2b-\	.	2dd\	.
8B-\	.	.	.	.	8f/	.	.	.	.	.	.	.	.	.	.	.	.	.	.	.
8B-\	.	.	.	.	8f/	.	.	.	.	.	.	.	.	.	.	.	.	.	.	.
8B-\J	.	.	.	.	8f/J	.	8dd\	.	.	.	.	.	.	.	.	.	.	.	.	.
*Xtremolo	*	*	*	*	*Xtremolo	*	*	*	*	*	*	*	*	*	*	*	*	*	*	*
!	!	!	!	!	!	!	!	!	!	!	!	!	!	!	!	!	!	!	!LO:LB:g=original	!
=39	=39	=39	=39	=39	=39	=39	=39	=39	=39	=39	=39	=39	=39	=39	=39	=39	=39	=39	=39	=39
!	!	!	!LO:TX:a:t=2	!	!	!	!	!	!	!	!	!	!	!	!	!	!LO:TX:a:t=1	!	!LO:TX:a:t=1	!
4F\	6	.	1.r	.	8b-/L	.	8dd\	.	2.ryy	2.ryy	.	.	.	.	2.ryy	2.ryy	2.r	.	2.r	.
.	5	.	.	.	8a/	.	4cc\	.	.	.	.	.	.	.	.	.	.	.	.	.
4C\	n	.	.	.	8g/	.	.	.	.	.	.	.	.	.	.	.	.	.	.	.
.	.	.	.	.	8en/J	.	8g|/L	.	.	.	.	.	.	.	.	.	.	.	.	.
!LO:TX:a:t=SIC&colon;s=4En	!	!	!	!	!	!	!	!	!	!	!	!	!	!	!	!	!	!	!	!
4E-\	5 3	.	.	.	8f/L	.	(8cc/	.	.	.	.	.	.	.	.	.	.	.	.	.
.	.	.	.	.	8g/J	.	8b-/J)	.	.	.	.	.	.	.	.	.	.	.	.	.
=40	=40	=40	=40	=40	=40	=40	=40	=40	=40	=40	=40	=40	=40	=40	=40	=40	=40	=40	=40	=40
4F\	#2	.	.	.	(8en/L	.	(8g#X/L	.	2.ryy	2.ryy	.	.	.	.	2.ryy	2.ryy	4r	.	4r	.
.	3	.	.	.	8f/J)	.	8a/J)	.	.	.	.	.	.	.	.	.	.	.	.	.
4F\	.	.	.	.	4f|/	.	4a/	.	.	.	.	.	.	.	.	.	8r	.	8r	.
.	.	.	.	.	.	.	.	.	.	.	.	.	.	.	.	.	(8a\L	.	(8cc\L	.
4FF/	.	.	.	.	4r	.	8r	.	.	.	.	.	.	.	.	.	8b-\	.	8dd\	.
.	.	.	.	.	.	.	8c/	.	.	.	.	.	.	.	.	.	8cc\J)	.	8eeX\J)	.
!	!	!	!	!	!LO:PB:g=original	!	!	!	!	!	!	!	!	!	!	!	!	!	!	!
=41	=41	=41	=41	=41	=41	=41	=41	=41	=41	=41	=41	=41	=41	=41	=41	=41	=41	=41	=41	=41
*	*	*	*	*	*tremolo	*	*	*	*	*	*	*	*	*	*	*	*	*	*	*
8F\L	5 3	.	2.F/	p	8c/L	.	4f/	.	2.ryy	2.ryy	0.r	.	0.r	.	2.ryy	2.ryy	4cc\	.	4ff\	.
8F\	_ _	.	.	.	8c/	.	.	.	.	.	.	.	.	.	.	.	.	.	.	.
8A\	.	.	.	.	8c/	.	(16f/LL	.	.	.	.	.	.	.	.	.	4cc\	.	4ff\	.
.	.	.	.	.	.	.	16en/	.	.	.	.	.	.	.	.	.	.	.	.	.
8A\J	x	.	.	.	8c/	.	16f/	.	.	.	.	.	.	.	.	.	.	.	.	.
.	.	.	.	.	.	.	16g/JJ)	.	.	.	.	.	.	.	.	.	.	.	.	.
!LO:LB:g=original	!	!	!	!	!	!	!LO:LB:g=original	!	!	!	!	!	!	!	!	!	!	!	!	!
8A\L	-5 3	.	.	.	8c/	.	8f/L	.	.	.	.	.	.	.	.	.	4cc\	.	8ff\L	.
8A\J	.	.	.	.	8c/J	.	8e-X/J	.	.	.	.	.	.	.	.	.	.	.	8ee-\J	.
=42	=42	=42	=42	=42	=42	=42	=42	=42	=42	=42	=42	=42	=42	=42	=42	=42	=42	=42	=42	=42
*tremolo	*	*	*	*	*	*	*	*	*	*	*	*	*	*	*	*	*	*	*	*
8B-\L	3	.	2.F/	.	8f/L	.	8c#X/L	.	2.ryy	2.ryy	.	.	.	.	2.ryy	2.ryy	8a\L	.	8cc#X\L	.
8B-\	.	.	.	.	8f/	.	8d/J	.	.	.	.	.	.	.	.	.	8b-\J	.	8dd\J	.
8B-\	.	.	.	.	8f/	.	4.d/	.	.	.	.	.	.	.	.	.	2b-\	.	2dd\	.
8B-\	.	.	.	.	8f/	.	.	.	.	.	.	.	.	.	.	.	.	.	.	.
8B-\	.	.	.	.	8f/	.	.	.	.	.	.	.	.	.	.	.	.	.	.	.
8B-\J	.	.	.	.	8f/J	.	8dd\	.	.	.	.	.	.	.	.	.	.	.	.	.
*Xtremolo	*	*	*	*	*Xtremolo	*	*	*	*	*	*	*	*	*	*	*	*	*	*	*
!	!	!	!	!	!	!	!	!	!	!	!	!	!	!	!	!	!LO:LB:g=original	!	!	!
=43	=43	=43	=43	=43	=43	=43	=43	=43	=43	=43	=43	=43	=43	=43	=43	=43	=43	=43	=43	=43
8F\L	.	.	4F/	.	(16b-/LL	.	(16dd\LL	.	2.ryy	2.ryy	.	.	.	.	2.ryy	2.ryy	(16b-\LL	.	16dd\LL	.
.	.	.	.	.	16a/J)	.	16cc\J)	.	.	.	.	.	.	.	.	.	16a\J)	.	16cc\J	.
8A\J	.	.	.	.	8a|/J	.	8cc|\J	.	.	.	.	.	.	.	.	.	8a|\J	.	8cc\J	.
4c\	6	.	4c/	.	8a/L	.	8cc\L	.	.	.	.	.	.	.	.	.	8b-\L	.	8dd\L	.
.	5	.	.	.	8g/	.	8b-\	.	.	.	.	.	.	.	.	.	8gg\	.	8bb-\	.
4C/	4	.	4C/	.	8f/	.	8a\	.	.	.	.	.	.	.	.	.	8ff\	.	8aa\	.
.	n.	.	.	.	8B-/J	.	8g\J	.	.	.	.	.	.	.	.	.	8eeX\J	.	8gg\J	.
=44	=44	=44	=44	=44	=44	=44	=44	=44	=44	=44	=44	=44	=44	=44	=44	=44	=44	=44	=44	=44
4F\	.	.	2.F/	.	4A/	.	4f/	.	2.ryy	2.ryy	.	.	.	.	2.ryy	2.ryy	4ff\	.	4ff\	.
4FF/	.	.	.	.	4r	.	8r	p	.	.	.	.	.	.	.	.	4r	.	4r	.
.	.	.	.	.	.	.	8c|/L	.	.	.	.	.	.	.	.	.	.	.	.	.
4F\	.	.	.	.	4r	.	8c|/	.	.	.	.	.	.	.	.	.	4r	.	4r	.
.	.	.	.	.	.	.	8c|/J	.	.	.	.	.	.	.	.	.	.	.	.	.
=45	=45	=45	=45	=45	=45	=45	=45	=45	=45	=45	=45	=45	=45	=45	=45	=45	=45	=45	=45	=45
!	!	!	!	!	!	!LO:DY:rj:t=p	!	!	!	!	!	!	!	!	!	!	!	!	!	!
4BB-/	.	.	2F/	.	8B-/L	p	8d|/L	.	2.ryy	2.ryy	0.r	.	0.r	.	2.ryy	2.ryy	4b-\	.	4dd\	.
.	.	.	.	.	8B-/	.	8d|/	.	.	.	.	.	.	.	.	.	.	.	.	.
4C/	.	.	.	.	8f/	.	8a|/	.	.	.	.	.	.	.	.	.	4ff\	.	4aa\	.
.	.	.	.	.	8f/	.	8a|/J	.	.	.	.	.	.	.	.	.	.	.	.	.
!	!	!	!	!	!	!	!	!	!	!	!	!	!	!	!	!	!LO:TX:t=P:problem=korekta ołówkiem kasownik -> krzyżyk	!	!	!
4C/	.	.	4C/	.	8G/	.	(8.b-/L	.	.	.	.	.	.	.	.	.	4eeX\	.	4gg\	.
.	.	.	.	.	8G/J	.	.	.	.	.	.	.	.	.	.	.	.	.	.	.
.	.	.	.	.	.	.	32g/LL	.	.	.	.	.	.	.	.	.	.	.	.	.
.	.	.	.	.	.	.	32e-/JJJ)	.	.	.	.	.	.	.	.	.	.	.	.	.
!	!	!	!LO:LB:g=original	!	!	!	!	!	!	!	!	!	!	!	!	!	!	!	!LO:LB:g=original	!
=46	=46	=46	=46	=46	=46	=46	=46	=46	=46	=46	=46	=46	=46	=46	=46	=46	=46	=46	=46	=46
4F\	.	.	2.F/	.	8A/	.	4f/	.	2.ryy	2.ryy	.	.	.	.	2.ryy	2.ryy	4ff\	.	4ff\	.
.	.	.	.	.	8r	.	.	.	.	.	.	.	.	.	.	.	.	.	.	.
4F\	.	.	.	.	4r	.	8r	.	.	.	.	.	.	.	.	.	4r	.	4r	.
.	.	.	.	.	.	.	8c|/L	.	.	.	.	.	.	.	.	.	.	.	.	.
4F\	.	.	.	.	4r	.	8c|/	.	.	.	.	.	.	.	.	.	4r	.	4r	.
.	.	.	.	.	.	.	8c|/J	.	.	.	.	.	.	.	.	.	.	.	.	.
=47	=47	=47	=47	=47	=47	=47	=47	=47	=47	=47	=47	=47	=47	=47	=47	=47	=47	=47	=47	=47
4BB-/	.	.	2F/	.	8B-/L	.	8d/L	.	2.ryy	2.ryy	.	.	.	.	2.ryy	2.ryy	4b-\	.	4dd\	.
.	.	.	.	.	8B-/	.	8d/	.	.	.	.	.	.	.	.	.	.	.	.	.
4C/	.	.	.	.	8f/	.	8a/	.	.	.	.	.	.	.	.	.	4ff\	.	4aa\	.
.	.	.	.	.	8f/	.	8a/J	.	.	.	.	.	.	.	.	.	.	.	.	.
!	!	!	!	!	!	!	!	!	!	!	!	!	!	!	!	!	!LO:TX:t=P:problem=korekta ołówkiem kasownik -> krzyżyk	!	!	!
.	.	.	.	.	.	.	(<8qcc/	.	.	.	.	.	.	.	.	.	.	.	.	.
4CC/	.	.	4C/	.	8G/	.	8.b-/L	.	.	.	.	.	.	.	.	.	4eeX\	.	4gg\	.
.	.	.	.	.	8G/J	.	.	.	.	.	.	.	.	.	.	.	.	.	.	.
.	.	.	.	.	.	.	32g/LL	.	.	.	.	.	.	.	.	.	.	.	.	.
.	.	.	.	.	.	.	32e-/JJJ)	.	.	.	.	.	.	.	.	.	.	.	.	.
!	!	!	!	!	!LO:LB:g=original	!	!	!	!	!	!	!	!	!	!	!	!	!	!	!
=48	=48	=48	=48	=48	=48	=48	=48	=48	=48	=48	=48	=48	=48	=48	=48	=48	=48	=48	=48	=48
4FF/	.	.	2F/	.	4A/	.	4f/	.	2.ryy	2.ryy	.	.	.	.	2.ryy	2.ryy	4ff\	.	4ff\	.
4F\	.	.	.	.	4A/	.	16r	.	.	.	.	.	.	.	.	.	4r	.	4r	.
.	.	.	.	.	.	.	16cc|\LL	.	.	.	.	.	.	.	.	.	.	.	.	.
.	.	.	.	.	.	.	(16dd\	.	.	.	.	.	.	.	.	.	.	.	.	.
.	.	.	.	.	.	.	16cc\JJ)	.	.	.	.	.	.	.	.	.	.	.	.	.
4E-\	5 3	.	4C/	.	4G/	.	(16cc\LL	.	.	.	.	.	.	.	.	.	4r	.	4r	.
.	.	.	.	.	.	.	16b-\)	.	.	.	.	.	.	.	.	.	.	.	.	.
.	.	.	.	.	.	.	(16g\	.	.	.	.	.	.	.	.	.	.	.	.	.
.	.	.	.	.	.	.	16e-\JJ)	.	.	.	.	.	.	.	.	.	.	.	.	.
!	!	!	!	!	!	!	!LO:LB:g=original	!	!	!	!	!	!	!	!	!	!	!	!	!
=49	=49	=49	=49	=49	=49	=49	=49	=49	=49	=49	=49	=49	=49	=49	=49	=49	=49	=49	=49	=49
!	!	!	!LO:TX:t=P:problem=mixed beam	!	!	!	!	!	!	!	!	!	!	!	!	!	!	!	!	!
8.F\L	.	.	8.f\L	.	8.A/L	.	8.f/L	.	2.ryy	2.ryy	1.r	.	2.r	.	2.ryy	2.ryy	8.cc\L	.	8.ff\L	.
!LO:TX:t=P:problem=16\right&colon; global	!	!	!	!	!	!	!	!	!	!	!	!	!	!	!	!	!	!	!	!
16F\Jk	.	.	16F/Jk	.	16A/Jk	.	16f/Jk	.	.	.	.	.	.	.	.	.	16cc\Jk	.	16ff\Jk	.
4F\	.	.	4F/	.	4A/	.	4f/	.	.	.	.	.	.	.	.	.	4cc\	.	4ff\	.
4r	.	.	4r	.	4r	.	4r	.	.	.	.	.	.	.	.	.	4r	.	4r	.
=50	=50	=50	=50	=50	=50	=50	=50	=50	=50	=50	=50	=50	=50	=50	=50	=50	=50	=50	=50	=50
!	!	!	!	!	!	!LO:DY:rj:t=p	!	!LO:DY:t=p.	!	!	!	!	!	!	!	!	!	!	!LO:TX:a:t=18	!
4F\	.	.	8F/L	.	(8A/L	p	4ff\	p	2.ryy	2.ryy	.	.	4ff\	Be-	2.ryy	2.ryy	0.r	.	0.r	.
.	.	.	8A/	p	8c/)	.	.	.	.	.	.	.	.	.	.	.	.	.	.	.
4F\	.	.	8F/	.	(8A/	.	(16ff\LL	.	.	.	.	.	16ff\LL	.	.	.	.	.	.	.
.	.	.	.	.	.	.	16een\	.	.	.	.	.	16een\	.	.	.	.	.	.	.
.	.	.	8A/	.	8c/J)	.	16ff\	.	.	.	.	.	16ff\	.	.	.	.	.	.	.
.	.	.	.	.	.	.	16gg\JJ)	.	.	.	.	.	16gg\JJ	.	.	.	.	.	.	.
4A\	-5 3	.	8F/	.	(8A/L	.	(8ff\L	.	.	.	.	.	8ff\L	.	.	.	.	.	.	.
.	.	.	8A/J	.	8c/J)	.	8ee-X\J)	.	.	.	.	.	8ee-X\J	-ne-	.	.	.	.	.	.
=51	=51	=51	=51	=51	=51	=51	=51	=51	=51	=51	=51	=51	=51	=51	=51	=51	=51	=51	=51	=51
4B-\	.	.	8F/L	.	(8B-/L	.	(8ee-\L	.	2.ryy	2.ryy	4r	.	8ee-\L	-di-	2.ryy	2.ryy	.	.	.	.
.	.	.	8D/	.	8f/)	.	8dd\J)	.	.	.	.	.	8dd\J	.	.	.	.	.	.	.
4B-\	.	.	8F/	.	(8B-/	.	4dd\	.	.	.	4r	.	4dd\	-ctus	.	.	.	.	.	.
.	.	.	8D/	.	8f/)	.	.	.	.	.	.	.	.	.	.	.	.	.	.	.
4B-\	.	.	8F/	.	(8B-/	.	8r	.	.	.	8r	.	4r	.	.	.	.	.	.	.
.	.	.	8D/J	.	8f/J)	.	8dd|\	.	.	.	8d\	Be-	.	.	.	.	.	.	.	.
!LO:LB:g=original	!	!	!	!	!	!	!	!	!	!	!	!	!	!	!	!	!	!	!	!
=52	=52	=52	=52	=52	=52	=52	=52	=52	=52	=52	=52	=52	=52	=52	=52	=52	=52	=52	=52	=52
4G\	n	.	8G/L	.	8Bn/L	.	4gg\	.	2.ryy	2.ryy	4g\	.	2.r	.	2.ryy	2.ryy	.	.	.	.
.	.	.	8Bn/	.	8d/	.	.	.	.	.	.	.	.	.	.	.	.	.	.	.
4G\	.	.	8G/	.	8B/	.	(16gg\LL	.	.	.	16g\LL	.	.	.	.	.	.	.	.	.
.	.	.	.	.	.	.	16ff#X\	.	.	.	16f#X\	.	.	.	.	.	.	.	.	.
.	.	.	8B/	.	8d/	.	16gg\	.	.	.	16g\	.	.	.	.	.	.	.	.	.
.	.	.	.	.	.	.	16aa\JJ)	.	.	.	16a\JJ	.	.	.	.	.	.	.	.	.
4Bnt\	6	.	8A/	.	8B/	.	8gg\L	.	.	.	8g\L	.	.	.	.	.	.	.	.	.
.	.	.	8B/J	.	8d/J	.	8ffn\J	.	.	.	8fn\J	-ne-	.	.	.	.	.	.	.	.
!	!	!	!LO:LB:g=original	!	!	!	!	!	!	!	!	!	!	!	!	!	!	!	!	!
=53	=53	=53	=53	=53	=53	=53	=53	=53	=53	=53	=53	=53	=53	=53	=53	=53	=53	=53	=53	=53
4c\	5 3	.	8G/L	.	(8c/L	.	(8ff\L	.	2.ryy	2.ryy	8f\L	-di-	4r	.	2.ryy	2.ryy	.	.	.	.
.	.	.	8En/	.	8g/)	.	8een\J)	.	.	.	8en\J	.	.	.	.	.	.	.	.	.
4c\	.	.	8G/	.	(8c/	.	4.ee\	.	.	.	4e\	-ctus	4r	.	.	.	.	.	.	.
.	.	.	8E/J	.	8g/)	.	.	.	.	.	.	.	.	.	.	.	.	.	.	.
4c\	.	.	4G/	.	(8c/	.	.	.	.	.	4r	.	8r	.	.	.	.	.	.	.
.	.	.	.	.	8en/J)	.	8gg\	.	.	.	.	.	8een\	qui	.	.	.	.	.	.
=54	=54	=54	=54	=54	=54	=54	=54	=54	=54	=54	=54	=54	=54	=54	=54	=54	=54	=54	=54	=54
!LO:TX:b:t=pedale	!	!	!	!	!	!	!	!	!	!	!	!	!	!	!	!	!	!	!	!
4F|\	.	.	2.F/	.	8f/L	.	8ff|\L	.	2.ryy	2.ryy	2.r	.	8ff\L	ve-	2.ryy	2.ryy	0.r	.	0.r	.
.	.	.	.	.	16a/L	.	(16cc\L	.	.	.	.	.	16cc\L	.	.	.	.	.	.	.
.	.	.	.	.	16b-/JJ	.	16dd\JJ)	.	.	.	.	.	16dd\JJ	.	.	.	.	.	.	.
4F|\	.	.	.	.	(8a/L	.	(8cc\L	.	.	.	.	.	8cc\L	.	.	.	.	.	.	.
.	.	.	.	.	8g/)	.	8b-\)	.	.	.	.	.	8b-\	.	.	.	.	.	.	.
4F|\	.	.	.	.	(8g/	.	(8a\	.	.	.	.	.	8b-\	.	.	.	.	.	.	.
.	.	.	.	.	8f/J)	.	8g\J)	.	.	.	.	.	8a\J	.	.	.	.	.	.	.
!	!	!	!	!	!LO:LB:g=original	!	!	!	!	!	!LO:LB:g=original	!	!	!	!	!	!	!	!	!
=55	=55	=55	=55	=55	=55	=55	=55	=55	=55	=55	=55	=55	=55	=55	=55	=55	=55	=55	=55	=55
4C\	.	.	2.C/	.	8en|/L	.	8g/L	.	2.ryy	2.ryy	8r	.	4g\	-nit	2.ryy	2.ryy	.	.	.	.
.	.	.	.	.	(16g/L	.	(16b-/L	.	.	.	16b-\LL	qui	.	.	.	.	.	.	.	.
.	.	.	.	.	16a/JJ)	.	16cc/JJ)	.	.	.	16cc\JJ	.	.	.	.	.	.	.	.	.
4C\	.	.	.	.	8g/L	.	8b-/L	.	.	.	8b-\L	ve-	4r	.	.	.	.	.	.	.
.	.	.	.	.	8en/	.	8g/	.	.	.	8g\	.	.	.	.	.	.	.	.	.
4C\	.	.	.	.	8f/	.	8a/	.	.	.	8a\	.	4r	.	.	.	.	.	.	.
.	.	.	.	.	8g/J	.	8b-/J	.	.	.	8b-\J	.	.	.	.	.	.	.	.	.
!	!	!	!	!	!	!	!	!	!	!	!	!	!LO:LB:g=original	!	!	!	!	!	!	!
=56	=56	=56	=56	=56	=56	=56	=56	=56	=56	=56	=56	=56	=56	=56	=56	=56	=56	=56	=56	=56
4F\	.	.	2.F/	.	8a|/L	.	8cc|\L	.	2.ryy	2.ryy	4a\	-nit	8r	.	2.ryy	2.ryy	.	.	.	.
.	.	.	.	.	(16a/L	.	(16cc\L	.	.	.	.	.	16cc\LL	qui	.	.	.	.	.	.
.	.	.	.	.	16b-/JJ)	.	16dd\JJ)	.	.	.	.	.	16dd\JJ	.	.	.	.	.	.	.
4F\	.	.	.	.	(8a/L	.	(8cc\L	.	.	.	4r	.	8cc\L	ve-	.	.	.	.	.	.
.	.	.	.	.	8g/)	.	8b-\)	.	.	.	.	.	8b-\	.	.	.	.	.	.	.
4F\	.	.	.	.	(8g/	.	(8b-\	.	.	.	4r	.	8b-\	.	.	.	.	.	.	.
.	.	.	.	.	8f/J)	.	8a\J)	.	.	.	.	.	8a\J	.	.	.	.	.	.	.
!	!	!	!	!	!	!	!LO:LB:g=original	!	!	!	!	!	!	!	!	!	!	!	!	!
=57	=57	=57	=57	=57	=57	=57	=57	=57	=57	=57	=57	=57	=57	=57	=57	=57	=57	=57	=57	=57
4C\	.	.	2.C/	.	8en|/L	.	(8g|/L	.	2.ryy	2.ryy	8r	.	4g\	-nit	2.ryy	2.ryy	.	.	.	.
.	.	.	.	.	(16g/L	.	16b-/L)	.	.	.	16b-\LL	qui	.	.	.	.	.	.	.	.
.	.	.	.	.	16a/JJ)	.	16cc/JJ	.	.	.	16cc\JJ	.	.	.	.	.	.	.	.	.
4C\	.	.	.	.	8g/L	.	8b-/L	.	.	.	8b-\L	ve-	4r	.	.	.	.	.	.	.
.	.	.	.	.	8en/	.	8g/	.	.	.	8g\J	.	.	.	.	.	.	.	.	.
4C\	.	.	.	.	8f/	.	8a/	.	.	.	8a\	-nit	8r	.	.	.	.	.	.	.
.	.	.	.	.	8g/J	.	8cc/J	.	.	.	8r	.	8cc\	qui	.	.	.	.	.	.
!	!	!	!	!	!	!	!	!	!	!	!	!	!	!	!	!	!LO:LB:g=original	!	!	!
=58	=58	=58	=58	=58	=58	=58	=58	=58	=58	=58	=58	=58	=58	=58	=58	=58	=58	=58	=58	=58
*	*	*	*	*	*	*	*tremolo	*	*	*	*	*	*	*	*	*	*	*	*	*
!	!	!	!	!	!	!LO:DY:rj:t=p	!	!LO:DY:t=p.	!	!	!	!	!	!	!	!	!	!	!	!
8F\L	.	.	4f\	.	8a\L	p	8ff\L	p	2.ryy	2.ryy	1.r	.	8.ff\L	ve-	2.ryy	2.ryy	0.r	.	0.r	.
8A\J	6	.	.	.	8cc\J	.	8ff\	.	.	.	.	.	.	.	.	.	.	.	.	.
.	.	.	.	.	.	.	.	.	.	.	.	.	16een\Jk	.	.	.	.	.	.	.
*tremolo	*	*	*	*	*tremolo	*	*	*	*	*	*	*	*	*	*	*	*	*	*	*
8A\L	.	.	4r	.	8cc\L	.	8ff\	.	.	.	.	.	4ff\	-nit	.	.	.	.	.	.
8A\	.	.	.	.	8cc\	.	8ff\	.	.	.	.	.	.	.	.	.	.	.	.	.
8A\	.	.	4r	.	8cc\	.	8ff\	.	.	.	.	.	8r	.	.	.	.	.	.	.
*	*	*	*	*	*	*	*	*	*	*	*	*	*	*ij	*	*	*	*	*	*
8A\J	.	.	.	.	8cc\J	.	8ff\J	.	.	.	.	.	8ff\	qui	.	.	.	.	.	.
=59	=59	=59	=59	=59	=59	=59	=59	=59	=59	=59	=59	=59	=59	=59	=59	=59	=59	=59	=59	=59
!	!	!	!LO:TX:a:t=3	!	!	!	!	!	!	!	!	!	!	!	!	!	!	!	!	!
8B-\L	6	.	1.r	.	8dd\L	.	8gg\L	.	2.ryy	2.ryy	.	.	8.gg\L	ve-	2.ryy	2.ryy	.	.	.	.
8B-\	.	.	.	.	8dd\	.	8gg\	.	.	.	.	.	.	.	.	.	.	.	.	.
.	.	.	.	.	.	.	.	.	.	.	.	.	16ff#X\Jk	.	.	.	.	.	.	.
8B-\	.	.	.	.	8dd\	.	8gg\	.	.	.	.	.	4gg\	-nit	.	.	.	.	.	.
8B-\	.	.	.	.	8dd\	.	8gg\	.	.	.	.	.	.	.	.	.	.	.	.	.
8B-\	.	.	.	.	8dd\	.	8gg\	.	.	.	.	.	8r	.	.	.	.	.	.	.
8B-\J	.	.	.	.	8dd\J	.	8gg\J	.	.	.	.	.	8gg\	qui	.	.	.	.	.	.
=60	=60	=60	=60	=60	=60	=60	=60	=60	=60	=60	=60	=60	=60	=60	=60	=60	=60	=60	=60	=60
8c\L	6 n	.	.	.	8een\L	.	8aa\L	.	2.ryy	2.ryy	2.r	.	8.aa\L	ve-	2.ryy	2.ryy	.	.	.	.
8c\	.	.	.	.	8een\	.	8aa\	.	.	.	.	.	.	.	.	.	.	.	.	.
.	.	.	.	.	.	.	.	.	.	.	.	.	16gg#X\Jk	.	.	.	.	.	.	.
8c\	.	.	.	.	8een\	.	8aa\	.	.	.	.	.	4aa\	-nit	.	.	.	.	.	.
*	*	*	*	*	*	*	*	*	*	*	*	*	*	*Xij	*	*	*	*	*	*
8c\	.	.	.	.	8een\	.	8aa\	.	.	.	.	.	.	.	.	.	.	.	.	.
8c\	.	.	.	.	8een\	.	8aa\	.	.	.	.	.	8r	.	.	.	.	.	.	.
8c\J	.	.	.	.	8een\J	.	8aa\J	.	.	.	.	.	8aa\	qui	.	.	.	.	.	.
*Xtremolo	*	*	*	*	*Xtremolo	*	*Xtremolo	*	*	*	*	*	*	*	*	*	*	*	*	*
=61	=61	=61	=61	=61	=61	=61	=61	=61	=61	=61	=61	=61	=61	=61	=61	=61	=61	=61	=61	=61
4d\	5 3	.	2.r	.	[4ff\	.	(4.bb-\	.	2.ryy	2.ryy	4r	.	(4.bb-\	ve-	2.ryy	2.ryy	.	.	.	.
8d\	.	.	.	.	8ff\]	.	.	.	.	.	4r	.	.	.	.	.	.	.	.	.
8r	.	.	.	.	8r	.	8aa\L)	.	.	.	.	.	8aa\)	.	.	.	.	.	.	.
4r	.	.	.	.	8r	.	(8gg\	.	.	.	8r	.	8ggn\	-nit	.	.	.	.	.	.
.	.	.	.	.	8dd\	.	8ff\J)	.	.	.	8dd\	in	8ff\	in	.	.	.	.	.	.
!	!	!	!	!	!LO:LB:g=original	!	!	!	!	!	!LO:LB:g=original	!	!LO:LB:g=original	!	!	!	!	!	!	!
=62	=62	=62	=62	=62	=62	=62	=62	=62	=62	=62	=62	=62	=62	=62	=62	=62	=62	=62	=62	=62
!	!	!	!	!	!	!	!LO:SIC:o:s:v=8een	!	!	!	!	!	!	!	!	!	!	!	!	!
8r	.	.	8r	.	(8cc/L	.	(8ee-'\L	.	2.ryy	2.ryy	8cc\L	no-	8een\L	no-	2.ryy	2.ryy	0.r	.	0.r	.
8B-\L	3	.	8d/L	.	8b-/	.	8dd'\	.	.	.	8b-\J	.	8dd\J	.	.	.	.	.	.	.
8A\	3	.	8c/	.	8a/	.	8cc'\	.	.	.	8a\	-mi-	8cc\	-mi-	.	.	.	.	.	.
8G\	3	.	8B-/	.	8g/	.	8b-'\	.	.	.	8g\	-ne	8b-\	-ne	.	.	.	.	.	.
8F\	3	.	8A/	.	8f/	.	8a'\	.	.	.	8f\	Do-	8a\	Do-	.	.	.	.	.	.
8En\J	3	.	8G/J	.	8en/J)	.	8g'\J)	.	.	.	8en\	-mi-	8g\	-mi-	.	.	.	.	.	.
!LO:LB:g=original	!	!	!	!	!	!	!	!	!	!	!	!	!	!	!	!	!	!	!	!
=63	=63	=63	=63	=63	=63	=63	=63	=63	=63	=63	=63	=63	=63	=63	=63	=63	=63	=63	=63	=63
8F\L	3	.	8F|/L	.	8f/L	.	8f|/L	.	2.ryy	2.ryy	4f\	-ni	4f/	-ni,	2.ryy	2.ryy	.	.	.	.
!	!	!LO:DY:t=for.	!	!	!	!	!	!	!	!	!	!	!	!	!	!	!	!	!	!
16F|\L	.	f	(16F/L	.	(16f/L	f	(16f/L	.	.	.	.	.	.	.	.	.	.	.	.	.
16G|\JJ	.	.	16G/JJ)	.	16g/JJ)	.	16g/JJ)	.	.	.	.	.	.	.	.	.	.	.	.	.
8A|\L	.	.	8A|/L	.	8A/L	.	8a|/L	.	.	.	4r	.	4r	.	.	.	.	.	.	.
8B-|\	.	.	8B-|/	.	8B-/	.	8b-|/	.	.	.	.	.	.	.	.	.	.	.	.	.
8c|\	.	.	(8c/	.	8c/	.	8cc|/	.	.	.	4r	.	4r	.	.	.	.	.	.	.
8d|\J	.	.	8d/J)	.	8d/J	.	8dd|/J	.	.	.	.	.	.	.	.	.	.	.	.	.
!	!	!	!LO:LB:g=original	!	!	!	!	!	!	!	!	!	!	!	!	!	!	!	!	!
=64	=64	=64	=64	=64	=64	=64	=64	=64	=64	=64	=64	=64	=64	=64	=64	=64	=64	=64	=64	=64
8.e-X|\L	.	.	8.e-\L	.	8.e-/L	f	(8.ee-\L	.	2.ryy	2.ryy	1.r	.	2.r	.	2.ryy	2.ryy	.	.	.	.
!LO:TX:t=P:problem=32\right&colon; global	!	!	!	!	!	!	!	!	!	!	!	!	!	!	!	!	!	!	!	!
32c|\LL	.	.	16c\Jk	.	16c/Jk	.	16cc\Jk)	.	.	.	.	.	.	.	.	.	.	.	.	.
32A|\JJJ	.	.	.	.	.	.	.	.	.	.	.	.	.	.	.	.	.	.	.	.
8F|\L	.	.	8A/L	.	4A/	.	4a\	.	.	.	.	.	.	.	.	.	.	.	.	.
8E-X|\	.	.	8c/	.	.	.	.	.	.	.	.	.	.	.	.	.	.	.	.	.
8D|\	.	.	8B-/	.	4r	.	4r	.	.	.	.	.	.	.	.	.	.	.	.	.
8C|\J	.	.	8A/J	.	.	.	.	.	.	.	.	.	.	.	.	.	.	.	.	.
=65	=65	=65	=65	=65	=65	=65	=65	=65	=65	=65	=65	=65	=65	=65	=65	=65	=65	=65	=65	=65
*	*	*	*tremolo	*	*	*	*	*	*	*	*	*	*	*	*	*	*	*	*	*
!LO:TX:t=P:problem=mixed beam	!	!	!	!	!LO:TX:a:t=2	!	!LO:TX:a:t=dol&colon;	!	!	!	!	!	!	!	!	!	!	!	!	!
8BB-/L	.	p	8B-/L	.	1.r	.	4b-\	.	2.ryy	2.ryy	.	.	(4b-\	Be-	2.ryy	2.ryy	.	.	.	.
8B-\J	.	.	8B-/	.	.	.	.	.	.	.	.	.	.	.	.	.	.	.	.	.
*tremolo	*	*	*	*	*	*	*	*	*	*	*	*	*	*	*	*	*	*	*	*
8B-\L	.	.	8B-/	.	.	.	(4.dd\	sf	.	.	.	.	4.dd\)	.	.	.	.	.	.	.
8B-\	.	.	8B-/	.	.	.	.	.	.	.	.	.	.	.	.	.	.	.	.	.
8B-\	.	.	8B-/	.	.	.	.	.	.	.	.	.	.	.	.	.	.	.	.	.
8B-\J	.	.	8B-/J	.	.	.	8cc\)	.	.	.	.	.	8cc\	-ne-	.	.	.	.	.	.
*Xtremolo	*	*	*	*	*	*	*	*	*	*	*	*	*	*	*	*	*	*	*	*
=66	=66	=66	=66	=66	=66	=66	=66	=66	=66	=66	=66	=66	=66	=66	=66	=66	=66	=66	=66	=66
4B-\	.	.	8B-/L	.	.	.	(8cc\L	.	2.ryy	2.ryy	2.r	.	(8cc\L	-di-	2.ryy	2.ryy	1.r	.	1.r	.
.	.	.	8B-/	.	.	.	8b-\J)	.	.	.	.	.	8b-\J)	.	.	.	.	.	.	.
8r	.	.	8B-/	.	.	.	4b-\	.	.	.	.	.	4b-\	-ctus	.	.	.	.	.	.
8BB-|/L	.	.	8B-/	.	.	.	.	.	.	.	.	.	.	.	.	.	.	.	.	.
8D|/	.	.	8B-/	.	.	.	4r	.	.	.	.	.	4r	.	.	.	.	.	.	.
8F|/J	.	.	8B-/J	.	.	.	.	.	.	.	.	.	.	.	.	.	.	.	.	.
=67	=67	=67	=67	=67	=67	=67	=67	=67	=67	=67	=67	=67	=67	=67	=67	=67	=67	=67	=67	=67
!	!	!	!	!	!LO:TX:a:t=dol	!	!	!	!	!	!	!	!	!	!	!	!	!	!	!
*tremolo	*	*	*	*	*	*	*	*	*	*	*	*	*	*ij	*	*	*	*	*	*
8B-\L	.	.	8B-/L	.	4b-\	.	4dd\	.	2.ryy	2.ryy	4b-\	Be-	4dd\	Be-	2.ryy	2.ryy	.	.	.	.
8B-\	.	.	8B-/	.	.	.	.	.	.	.	.	.	.	.	.	.	.	.	.	.
8B-\	.	.	8B-/	.	4.dd\	p	(4.ff\	sf	.	.	4.dd\	.	4.ff\	.	.	.	.	.	.	.
8B-\	.	.	8B-/	.	.	.	.	.	.	.	.	.	.	.	.	.	.	.	.	.
8B-\	.	.	8B-/	.	.	.	.	.	.	.	.	.	.	.	.	.	.	.	.	.
8B-\J	.	.	8B-/J	.	8cc\	.	8ee-\)	.	.	.	8cc\	-ne-	8ee-\	-ne-	.	.	.	.	.	.
*Xtremolo	*	*	*	*	*	*	*	*	*	*	*	*	*	*	*	*	*	*	*	*
!	!	!	!	!	!	!	!LO:LB:g=original	!	!	!	!	!	!	!	!	!	!	!	!	!
=68	=68	=68	=68	=68	=68	=68	=68	=68	=68	=68	=68	=68	=68	=68	=68	=68	=68	=68	=68	=68
4B-\	.	.	8B-/L	.	16dd\LL	.	(16ff\LL	.	2.ryy	2.ryy	16dd\LL	-di-	16ff\LL	-di-	2.ryy	2.ryy	4r	.	4r	.
.	.	.	.	.	(16cc\	.	16ee-\	.	.	.	16cc\	.	16ee-\	.	.	.	.	.	.	.
.	.	.	8B-/	.	16b-\	.	16dd\	.	.	.	16b-\	.	16dd\	.	.	.	.	.	.	.
.	.	.	.	.	16cc\JJ)	.	16ee-\JJ)	.	.	.	16cc\JJ	.	16ee-\JJ	.	.	.	.	.	.	.
8r	.	.	8B-/	.	4b-\	.	4dd\	.	.	.	4b-\	-ctus	4dd\	-ctus	.	.	4r	.	4r	.
*	*	*	*	*	*	*	*	*	*	*	*	*	*	*Xij	*	*	*	*	*	*
8BB-|/L	.	.	8B-/	.	.	.	.	.	.	.	.	.	.	.	.	.	.	.	.	.
8D|/	.	.	8B-/	.	8r	.	8r	.	.	.	8r	.	8r	.	.	.	8r	.	8r	.
8BB-|/J	.	.	8B-/J	.	8b-\	.	8dd\	.	.	.	8b-\	qui	8dd\	qui	.	.	8b-\	p	8dd\	p
!	!	!	!	!	!	!	!	!	!	!	!LO:LB:g=original	!	!	!	!	!	!	!	!	!
=69	=69	=69	=69	=69	=69	=69	=69	=69	=69	=69	=69	=69	=69	=69	=69	=69	=69	=69	=69	=69
4F\	6	.	8f\L	.	(8b-/L	.	(8dd\L	.	2.ryy	2.ryy	8b-\L	ve-	8dd\L	ve-	2.ryy	2.ryy	(8b-\L	.	8dd\L	.
.	5	.	8f\	.	8an/)	.	8cc\)	.	.	.	8a\J	.	8cc\J	.	.	.	8a\J)	.	8cc\J	.
4A\	6 5	.	8f\	.	8f|/	.	8cc|\	.	.	.	4a\	-nit	4cc\	-nit	.	.	4a\	.	4cc\	.
.	.	.	8f\	.	8f|/	.	8cc|\J	.	.	.	.	.	.	.	.	.	.	.	.	.
4B-\	.	.	8f\	.	8f|/	.	(16ee-\LL	.	.	.	8r	.	8r	.	.	.	8r	.	8r	.
.	.	.	.	.	.	.	16dd\	.	.	.	.	.	.	.	.	.	.	.	.	.
!	!	!	!	!	!	!	!	!	!	!	!	!	!LO:TX:b:t=verut	!	!	!	!	!	!	!
.	.	.	8f\J	.	8f|/J	.	16cc#X\	.	.	.	8b-\	qui	8dd\	qui	.	.	8b-\	.	8dd\	.
.	.	.	.	.	.	.	16dd\JJ)	.	.	.	.	.	.	.	.	.	.	.	.	.
!	!	!	!	!	!	!	!	!	!	!	!	!	!LO:PB:g=original	!	!	!	!	!	!LO:LB:g=original	!
=70	=70	=70	=70	=70	=70	=70	=70	=70	=70	=70	=70	=70	=70	=70	=70	=70	=70	=70	=70	=70
4F\	6	.	8f\L	.	(8b-/L	.	(8dd\L	.	2.ryy	2.ryy	8b-\L	ve-	8dd\L	ve-	2.ryy	2.ryy	(8b-\L	.	8dd\L	.
.	5	.	8f\	.	8a/)	.	8ccn\)	.	.	.	8a\J	.	8cc\J	.	.	.	8a\J)	.	8cc\J	.
4A\	6 5	.	8f\	.	8f|/	.	8cc|\	.	.	.	4a\	-nit	4cc\	-nit	.	.	4a\	.	4cc\	.
.	.	.	8f\	.	8f|/	.	8cc|\J	.	.	.	.	.	.	.	.	.	.	.	.	.
4B-\	.	.	8f\	.	8f|/	.	(16ee-\LL	.	.	.	8r	.	8r	.	.	.	8r	.	8r	.
.	.	.	.	.	.	.	16dd\	.	.	.	.	.	.	.	.	.	.	.	.	.
.	.	.	8f\J	.	8f|/J	.	16cc#X\	.	.	.	8f\	qui	8dd\	qui	.	.	8b-\	.	8dd\	.
.	.	.	.	.	.	.	16dd\JJ)	.	.	.	.	.	.	.	.	.	.	.	.	.
*	*	*	*Xtremolo	*	*	*	*	*	*	*	*	*	*	*	*	*	*	*	*	*
!LO:LB:g=original	!	!	!	!	!LO:LB:g=original	!	!	!	!	!	!	!	!	!	!	!	!	!	!	!
=71	=71	=71	=71	=71	=71	=71	=71	=71	=71	=71	=71	=71	=71	=71	=71	=71	=71	=71	=71	=71
!	!	!	!	!	!LO:N:vis=8.	!	!	!	!	!	!	!	!	!	!	!	!	!	!	!
4BB-/	.	.	4B-/	.	(8d/L	.	8.ff\L	.	2.ryy	2.ryy	4d\	ve-	8ff\L	ve-	2.ryy	2.ryy	4dd\	.	4ff\	.
.	.	.	.	.	8f/)	.	.	.	.	.	.	.	8dd\	.	.	.	.	.	.	.
.	.	.	.	.	.	.	16dd\K	.	.	.	.	.	.	.	.	.	.	.	.	.
4E-/	.	.	4e-\	.	8e-|/	.	8.gg\	.	.	.	4e-\	.	8gg\	.	.	.	4ee-\	.	4gg\	.
.	.	.	.	.	8e-|/	.	.	.	.	.	.	.	8ee-\	.	.	.	.	.	.	.
.	.	.	.	.	.	.	16ee-\Jk	.	.	.	.	.	.	.	.	.	.	.	.	.
8E-/L	6	.	8e-\L	.	8e-|/	.	8ccn\L	.	.	.	8e-\L	.	8cc\	.	.	.	4r	.	4r	.
!	!	!	!	!	!	!	!LO:TX:t=P:problem=korekta a/bb	!	!	!	!	!	!	!	!	!	!	!	!	!
8En/J	.	.	8en\J	.	8en|/J	.	8b-\J	.	.	.	8en\J	.	8b-\J	.	.	.	.	.	.	.
=72	=72	=72	=72	=72	=72	=72	=72	=72	=72	=72	=72	=72	=72	=72	=72	=72	=72	=72	=72	=72
!	!	!	!	!	!	!	!	!	!	!	!	!	!	!	!	!	!LO:TX:a:t=2	!	!	!
4F\	4 2	.	4f\	.	4gT/	.	4b-\	.	2.ryy	2.ryy	4f\	.	4b-\	.	2.ryy	2.ryy	1.r	.	1.r	.
4FF/	3 1	.	4F/	.	4f/	.	4a\	.	.	.	4f\	-nit	4a\	-nit	.	.	.	.	.	.
4F\	.	.	4f\	.	4r	.	4r	.	.	.	8r	.	8r	.	.	.	.	.	.	.
.	.	.	.	.	.	.	.	.	.	.	8a\	qui	8cc\	qui	.	.	.	.	.	.
!	!	!	!LO:LB:g=original	!	!	!	!	!	!	!	!	!	!	!	!	!	!	!	!	!
=73	=73	=73	=73	=73	=73	=73	=73	=73	=73	=73	=73	=73	=73	=73	=73	=73	=73	=73	=73	=73
4F\	7 5	.	2.F/	.	8r	.	8r	.	2.ryy	2.ryy	4cc\	ve-	4ee-\	ve-	2.ryy	2.ryy	.	.	.	.
.	.	.	.	.	8cc\	.	8ee-\	.	.	.	.	.	.	.	.	.	.	.	.	.
4F\	6 4	.	.	.	8r	.	8r	.	.	.	4b-\	.	4dd\	.	.	.	.	.	.	.
!	!	!	!	!	!	!LO:DY:t=p	!	!	!	!	!	!	!	!	!	!	!	!	!	!
.	.	.	.	.	8b-\	p	8dd\	.	.	.	.	.	.	.	.	.	.	.	.	.
4F\	5 3	.	.	.	8r	.	8r	.	.	.	4a\	.	4cc\	.	.	.	.	.	.	.
.	.	.	.	.	8a\	.	8cc\	.	.	.	.	.	.	.	.	.	.	.	.	.
!	!	!	!	!	!	!	!	!	!	!	!LO:LB:g=original	!	!	!	!	!	!	!	!	!
=74	=74	=74	=74	=74	=74	=74	=74	=74	=74	=74	=74	=74	=74	=74	=74	=74	=74	=74	=74	=74
4B-\	n	.	2.F/	.	8.b-\L	.	(8.dd\L	.	2.ryy	2.ryy	8.b-\L	.	8.dd\L	.	2.ryy	2.ryy	4r	.	4r	.
.	.	.	.	.	16cc\Jk	.	16ee-\Jk)	.	.	.	16cc\Jk	.	16ee-\Jk	.	.	.	.	.	.	.
4BB-/	.	.	.	.	4dd\	.	4ff\	.	.	.	4dd\	-nit	4ff\	-nit	.	.	8b-\L	.	8dd\L	.
.	.	.	.	.	.	.	.	.	.	.	.	.	.	.	.	.	8dd\	.	8ff\	.
4r	.	.	.	.	4r	.	4r	.	.	.	4r	.	4r	.	.	.	8b-\	.	8dd\	.
.	.	.	.	.	.	.	.	.	.	.	.	.	.	.	.	.	8dd\J	.	8ff\J	.
!	!	!	!	!	!	!	!	!	!	!	!	!	!	!	!	!	!LO:PB:g=original	!	!	!
=75	=75	=75	=75	=75	=75	=75	=75	=75	=75	=75	=75	=75	=75	=75	=75	=75	=75	=75	=75	=75
4F\	7 5	.	2.F/	.	8r	.	8r	.	2.ryy	2.ryy	4cc\	in	4ee-\	qui	2.ryy	2.ryy	4cc\	.	4ee-\	.
.	.	.	.	.	8cc\	.	8ee-\	.	.	.	.	.	.	.	.	.	.	.	.	.
4F\	6 4	.	.	.	8r	.	8r	.	.	.	4b-\	no-	(4dd\	ve-	.	.	4r	.	4r	.
.	.	.	.	.	8b-\	.	8dd\	.	.	.	.	.	.	.	.	.	.	.	.	.
4F\	5 3	.	.	.	8r	.	8r	.	.	.	4a\	.	4cc\)	.	.	.	4r	.	4r	.
.	.	.	.	.	8a\	.	8cc\	.	.	.	.	.	.	.	.	.	.	.	.	.
!	!	!	!	!	!	!	!LO:PB:g=original	!	!	!	!	!	!	!	!	!	!	!	!	!
=76	=76	=76	=76	=76	=76	=76	=76	=76	=76	=76	=76	=76	=76	=76	=76	=76	=76	=76	=76	=76
4B-\	.	.	2.F/	.	8.b-\L	.	8.dd\L	.	2.ryy	2.ryy	8.b-\L	.	8.dd\L	.	2.ryy	2.ryy	4r	.	4r	.
.	.	.	.	.	16cc\Jk	.	16ee-\Jk	.	.	.	16cc\Jk	-mi-	16ee-\Jk	.	.	.	.	.	.	.
4BB-/	.	.	.	.	4dd\	.	4ff\	.	.	.	4dd\	-ne	4ff\	-nit	.	.	8b-\L	.	8dd\L	.
.	.	.	.	.	.	.	.	.	.	.	.	.	.	.	.	.	8dd\	.	8ff\	.
4r	.	.	.	.	8r	.	8r	.	.	.	8r	.	8r	.	.	.	8b-\	.	8dd\	.
.	.	.	.	.	8dd\	.	8ff\	.	.	.	8dd\	qui	8ff\	qui	.	.	8dd\J	.	8ff\J	.
!	!	!	!	!	!	!	!	!	!	!	!	!	!LO:LB:g=original	!	!	!	!	!	!LO:LB:g=original	!
=77	=77	=77	=77	=77	=77	=77	=77	=77	=77	=77	=77	=77	=77	=77	=77	=77	=77	=77	=77	=77
*	*	*	*	*	*tremolo	*	*tremolo	*	*	*	*	*	*	*	*	*	*	*	*	*
4E-\	.	.	4B-/	.	8ee-\L	.	8gg\L	.	2.ryy	2.ryy	4ee-\	ve-	4gg\	ve-	2.ryy	2.ryy	4ee-\	.	4gg\	.
.	.	.	.	.	8ee-\	.	8gg\	.	.	.	.	.	.	.	.	.	.	.	.	.
4E-\	.	.	2B-/	.	8ee-\	.	8gg\	.	.	.	4ee-\	-nit	4gg\	-nit	.	.	8r	.	8r	.
.	.	.	.	.	8ee-\	.	8gg\	.	.	.	.	.	.	.	.	.	8gg|\L	.	8bb-\L	.
4r	.	.	.	.	8ee-\	.	8gg\	.	.	.	8r	.	8r	.	.	.	(8gg\	.	8bb-\	.
*	*	*	*	*	*	*	*	*	*	*	*	*	*	*ij	*	*	*	*	*	*
.	.	.	.	.	8ee-\J	.	8gg\J	.	.	.	8ee-\	qui	8gg\	qui	.	.	8ee-\J)	.	8gg\J	.
=78	=78	=78	=78	=78	=78	=78	=78	=78	=78	=78	=78	=78	=78	=78	=78	=78	=78	=78	=78	=78
4B-\	.	.	4B-/	.	8dd\L	.	8ff\L	.	2.ryy	2.ryy	4dd\	ve-	4ff\	ve-	2.ryy	2.ryy	4dd\	.	4ff\	.
.	.	.	.	.	8dd\	.	8ff\	.	.	.	.	.	.	.	.	.	.	.	.	.
4BB-/	.	.	2B-/	.	8dd\	.	8ff\	.	.	.	4dd\	-nit	4ff\	-nit	.	.	8r	.	8r	.
*	*	*	*	*	*	*	*	*	*	*	*	*	*	*Xij	*	*	*	*	*	*
.	.	.	.	.	8dd\	.	8ff\	.	.	.	.	.	.	.	.	.	8dd\L	.	8bb-\L	.
4r	.	.	.	.	8dd\	.	8ff\	.	.	.	8r	.	8r	.	.	.	8dd\	.	8bb-\	.
.	.	.	.	.	8dd\J	.	8ff\J	.	.	.	8dd\	qui	8ff\	qui	.	.	8dd\J	.	8ff\J	.
*	*	*	*	*	*Xtremolo	*	*Xtremolo	*	*	*	*	*	*	*	*	*	*	*	*	*
!LO:LB:g=original	!	!	!	!	!LO:LB:g=original	!	!	!	!	!	!LO:LB:g=original	!	!	!	!	!	!	!	!	!
=79	=79	=79	=79	=79	=79	=79	=79	=79	=79	=79	=79	=79	=79	=79	=79	=79	=79	=79	=79	=79
8BB-\L	.	.	8B-\L	.	8dd\L	.	8ff\L	.	2.ryy	2.ryy	8dd\L	ve-	8ff\L	ve-	2.ryy	2.ryy	8dd\L	.	8ff\L	.
8E-\J	6	.	8e-\J	.	8cc\J	.	8ee-\J	.	.	.	8cc\J	.	8ee-\J	.	.	.	8cc\J	.	8ee-\J	.
4F\	6 4	.	4f\	.	4b-/	.	4dd\	.	.	.	4b-\	.	4dd\	.	.	.	4b-\	.	4dd\	.
4FF/	5 3	.	4F/	.	4am/	.	4ccT\	.	.	.	4f\	.	4cc\	.	.	.	4a\	.	4cc\	.
=80	=80	=80	=80	=80	=80	=80	=80	=80	=80	=80	=80	=80	=80	=80	=80	=80	=80	=80	=80	=80
8BB-\L	3 1	.	8B-/L	.	8b-\	.	8b-\	.	2.ryy	2.ryy	4d\	-nit	4b-\	-nit	2.ryy	2.ryy	4b-\	.	4dd\	f
!	!	!	!	!	!	!LO:HP:a	!	!	!	!	!	!	!	!	!	!	!	!	!	!
8BB-\	_ _	.	8B-/	.	4b-\	<	4dd\	.	.	.	.	.	.	.	.	.	.	.	.	.
8C\	.	.	8c/	f	.	.	.	.	.	.	8b-\	in	8dd\	in	.	.	4b-\	.	4dd\	.
8D\	.	.	8d/	.	4b-\	.	4dd\	f	.	.	8b-\	no-	8dd\	no-	.	.	.	.	.	.
8E-\	.	.	8e-/	.	.	.	.	.	.	.	8b-\	-mi-	8dd\	-mi-	.	.	4b-\	.	4ee-\	.
8En\J	x	.	8en/J	.	8b-\	.	8dd\	.	.	.	8b-\	-ne	8dd\	-ne	.	.	.	.	.	.
=81	=81	=81	=81	=81	=81	=81	=81	=81	=81	=81	=81	=81	=81	=81	=81	=81	=81	=81	=81	=81
2.F\	6 4	.	2.f\	.	2.b-;\	f	2.dd\	.	2.ryy	2.ryy	2.b-\	Do-	2.dd\	Do-	2.ryy	2.ryy	2.b-\	.	2dd\	.
.	.	.	.	.	.	.	.	.	.	.	.	.	.	.	.	.	.	.	4ryy	.
!	!	!	!LO:PB:g=original	!	!	!	!	!	!	!	!	!	!	!	!	!	!	!	!	!
=82	=82	=82	=82	=82	=82	=82	=82	=82	=82	=82	=82	=82	=82	=82	=82	=82	=82	=82	=82	=82
!	!	!	!LO:TX:a:t=4	!	!LO:TX:a:t=4	!	!LO:TX:a:t=4	!	!	!	!	!	!	!	!	!	!	!	!	!
1.r	.	.	0.r	.	0.r	.	0.r	.	2.ryy	2.ryy	4.b-\	.	4.dd\	.	2.ryy	2.ryy	0.r	.	0.r	.
.	.	.	.	.	.	.	.	.	.	.	8a\L	.	8cc\L	.	.	.	.	.	.	.
.	.	.	.	.	.	.	.	.	.	.	8cc\	.	8ee-\	.	.	.	.	.	.	.
.	.	.	.	.	.	.	.	.	.	.	8b-\J	.	8dd\J	.	.	.	.	.	.	.
=83	=83	=83	=83	=83	=83	=83	=83	=83	=83	=83	=83	=83	=83	=83	=83	=83	=83	=83	=83	=83
.	.	.	.	.	.	.	.	.	2.ryy	2.ryy	8dd\L	.	8ff\L	.	2.ryy	2.ryy	.	.	.	.
.	.	.	.	.	.	.	.	.	.	.	8b-\	.	8dd\	.	.	.	.	.	.	.
.	.	.	.	.	.	.	.	.	.	.	8ee-\	.	8gg\	.	.	.	.	.	.	.
.	.	.	.	.	.	.	.	.	.	.	8cc\	.	8ee-\	.	.	.	.	.	.	.
.	.	.	.	.	.	.	.	.	.	.	8b-\	.	8dd\	.	.	.	.	.	.	.
.	.	.	.	.	.	.	.	.	.	.	8a\J	.	8cc\J	.	.	.	.	.	.	.
!	!	!	!	!	!	!	!	!	!	!	!LO:LB:g=original	!	!	!	!	!	!	!	!	!
=84	=84	=84	=84	=84	=84	=84	=84	=84	=84	=84	=84	=84	=84	=84	=84	=84	=84	=84	=84	=84
2.r	.	.	.	.	.	.	.	.	2.ryy	2.ryy	4.b-\	.	4.dd\	.	2.ryy	2.ryy	.	.	.	.
.	.	.	.	.	.	.	.	.	.	.	8a\L	.	8cc\L	.	.	.	.	.	.	.
.	.	.	.	.	.	.	.	.	.	.	8b-\	.	8dd\	.	.	.	.	.	.	.
.	.	.	.	.	.	.	.	.	.	.	8a\J	.	8cc\J	.	.	.	.	.	.	.
!	!	!	!	!	!	!	!	!	!	!	!	!	!LO:LB:g=original	!	!	!	!	!	!	!
=85	=85	=85	=85	=85	=85	=85	=85	=85	=85	=85	=85	=85	=85	=85	=85	=85	=85	=85	=85	=85
4r	.	.	.	.	.	.	.	.	2.ryy	2.ryy	8.b-\L	.	8.dd\L	.	2.ryy	2.ryy	.	.	.	.
.	.	.	.	.	.	.	.	.	.	.	16a\Jk	.	16cc\Jk	.	.	.	.	.	.	.
4r	.	.	.	.	.	.	.	.	.	.	16b-\LL	.	16dd\LL	.	.	.	.	.	.	.
.	.	.	.	.	.	.	.	.	.	.	16a\	.	16cc\	.	.	.	.	.	.	.
.	.	.	.	.	.	.	.	.	.	.	16b-\	.	16dd\	.	.	.	.	.	.	.
.	.	.	.	.	.	.	.	.	.	.	16a\JJ	.	16cc\JJ	.	.	.	.	.	.	.
4F\	.	.	.	.	.	.	.	.	.	.	16b-\LL	.	16dd\LL	.	.	.	.	.	.	.
.	.	.	.	.	.	.	.	.	.	.	16a\	.	16cc\	.	.	.	.	.	.	.
.	.	.	.	.	.	.	.	.	.	.	16b-\	.	16dd\	.	.	.	.	.	.	.
!	!	!	!	!	!	!	!	!	!	!	!LO:TX:t=P:problem=korekty ołówkiem. nie widać wartości rytmicznej	!	!	!	!	!	!	!	!	!
.	.	.	.	.	.	.	.	.	.	.	16a\JJ	-mi-	16cc\JJ	-mi-	.	.	.	.	.	.
!	!	!	!	!	!	!	!	!	!	!	!	!	!	!	!	!	!LO:LB:g=original	!	!	!
=86	=86	=86	=86	=86	=86	=86	=86	=86	=86	=86	=86	=86	=86	=86	=86	=86	=86	=86	=86	=86
!	!	!	!LO:TX:t=P:problem=forte jak S	!	!	!	!	!	!	!	!	!	!	!	!	!	!	!	!	!
4B-\	.	.	2.B-/	f	8f|/L	.	8b-\L	.	2.ryy	2.ryy	4b-\	-ni,	4dd\	-ni	2.ryy	2.ryy	4b-\	.	4dd\	f
!	!	!	!	!	!LO:TX:t=P:problem=kropka/staccato/łuk  na środku	!	!	!	!	!	!	!	!	!	!	!	!	!	!	!
.	.	.	.	.	16dd/L	.	(16ff\L	.	.	.	.	.	.	.	.	.	.	.	.	.
.	.	.	.	.	16ee-/JJ	.	16gg\JJ)	.	.	.	.	.	.	.	.	.	.	.	.	.
4r	.	.	.	.	8dd\L	.	8ff\L	.	.	.	4r	.	4r	.	.	.	4r	f	4r	.
.	.	.	.	.	8b-\J	.	8dd\J	.	.	.	.	.	.	.	.	.	.	.	.	.
4B-\	.	.	.	.	8r	.	8r	.	.	.	4r	.	4r	.	.	.	4dd\	.	4ff\	.
.	.	.	.	.	8dd\	.	8ff\	.	.	.	.	.	.	.	.	.	.	.	.	.
!	!	!	!	!	!	!	!	!	!	!	!	!	!	!	!	!	!	!	!LO:LB:g=original	!
=87	=87	=87	=87	=87	=87	=87	=87	=87	=87	=87	=87	=87	=87	=87	=87	=87	=87	=87	=87	=87
!	!	!	!	!	!	!	!	!	!	!	!	!	!LO:TX:a:t=5	!	!	!	!	!	!	!
4e-\	3	.	2.E-/	.	8r	.	8r	.	2.ryy	2.ryy	0.r	.	0.r	.	2.ryy	2.ryy	4ee-\	.	4gg\	.
.	.	.	.	.	(16ee-\LL	.	(16gg\LL	.	.	.	.	.	.	.	.	.	.	.	.	.
.	.	.	.	.	16ff\JJ)	.	16aa-X\JJ)	.	.	.	.	.	.	.	.	.	.	.	.	.
4r	.	.	.	.	8ee-\L	.	(8gg\L	.	.	.	.	.	.	.	.	.	4r	.	4r	.
.	.	.	.	.	8b-\J	.	8ee-\J)	.	.	.	.	.	.	.	.	.	.	.	.	.
4E-\	.	.	.	.	8r	.	8r	.	.	.	.	.	.	.	.	.	4ee-\	.	4gg\	.
.	.	.	.	.	8ee-\	.	8gg\	.	.	.	.	.	.	.	.	.	.	.	.	.
=88	=88	=88	=88	=88	=88	=88	=88	=88	=88	=88	=88	=88	=88	=88	=88	=88	=88	=88	=88	=88
4B-\	.	.	4B-/	.	8r	.	8r	.	2.ryy	2.ryy	.	.	.	.	2.ryy	2.ryy	8dd|\L	.	8ff\L	.
.	.	.	.	.	(16dd\LL	.	(16ff\LL	.	.	.	.	.	.	.	.	.	(16dd\L	.	16ff\L	.
.	.	.	.	.	16ee-\JJ)	.	16gg\JJ)	.	.	.	.	.	.	.	.	.	16ee-\JJ)	.	16gg\JJ	.
4F\	8 6	.	2F/	.	(8dd\L	.	(8ff\L	.	.	.	.	.	.	.	.	.	8dd\L	.	8ff\L	.
.	7 5	.	.	.	8cc\)	.	8ee-\)	.	.	.	.	.	.	.	.	.	8cc\	.	8ee-\	.
4FF/	6 4	.	.	.	(8b-\	.	(8dd\	.	.	.	.	.	.	.	.	.	8b-\	.	8dd\	.
.	5 3	.	.	.	8a\J)	.	8cc\J)	.	.	.	.	.	.	.	.	.	8a\J	.	8cc\J	.
!LO:LB:g=original	!	!	!	!	!LO:LB:g=original	!	!	!	!	!	!	!	!	!	!	!	!	!	!	!
=89	=89	=89	=89	=89	=89	=89	=89	=89	=89	=89	=89	=89	=89	=89	=89	=89	=89	=89	=89	=89
!LO:TX:b:t=pedale	!	!	!	!	!	!	!	!	!	!	!	!	!	!	!	!	!	!	!	!
4BB-/	.	.	4B-/	.	4b-/	.	4dd\	.	2.ryy	2.ryy	.	.	.	.	2.ryy	2.ryy	4b-\	.	4dd\	.
4BB-/	.	.	4d/	.	4r	.	4r	.	.	.	.	.	.	.	.	.	4r	p	4r	.
4BB-/	.	.	4d/	.	4r	.	4r	.	.	.	.	.	.	.	.	.	4dd\	.	4ff\	.
!	!	!	!	!	!	!	!LO:LB:g=original	!	!	!	!	!	!	!	!	!	!	!	!	!
=90	=90	=90	=90	=90	=90	=90	=90	=90	=90	=90	=90	=90	=90	=90	=90	=90	=90	=90	=90	=90
4BB-/	.	.	4d\	.	4r	.	4r	.	2.ryy	2.ryy	.	.	.	.	2.ryy	2.ryy	4b-\	.	4dd\	.
4BB-/	.	.	4d\	.	4r	.	4r	.	.	.	.	.	.	.	.	.	4r	.	4r	.
4BB-/	.	.	4d\	.	4d/	.	4f/	.	.	.	.	.	.	.	.	.	4dd\	.	4ff\	.
=91	=91	=91	=91	=91	=91	=91	=91	=91	=91	=91	=91	=91	=91	=91	=91	=91	=91	=91	=91	=91
4BB-/	.	.	4F;/	.	4B-;/	.	4d/	.	2.ryy	2.ryy	2.r	.	2.r	.	2.ryy	2.ryy	4b-\	.	4dd\	.
4r	.	.	4r	.	4r	.	4r	.	.	.	.	.	.	.	.	.	4r	.	4r	.
4r	.	.	4r	.	4r	.	4r	.	.	.	.	.	.	.	.	.	4r	.	4r	.
==	==	==	==	==	==	==	==	==	==	==	==	==	==	==	==	==	==	==	==	==
*-	*-	*-	*-	*-	*-	*-	*-	*-	*-	*-	*-	*-	*-	*-	*-	*-	*-	*-	*-	*-
!!!system-decoration: [(s1,s2)][(s3,s4)][(s5,s6,s7,s8)][(s9,s10,s11)][(s12)]
!!!RDF**dynam: < = cres.
!!!RDF**dynam: sf = sf.
!!!RDF**dynam: f = f.
!!!RDF**kern: | = vertical stroke
!!!RDF**kern: > = above
!!!RDF**kern: < = below
!!!ENC: Marta Chmielewska
!!!END: 2020-07-23
!!!ENC: Leszek Kubiak
!!!END: 2022-01-04
!!!YEC: Copyright 2022 Narodowy Instytut Fryderyka Chopina (https://polishscores.org)
!!!YEM: Licence CC BY 4.0 (https://creativecommons.org/licenses/by/4.0)
